!!!!SEGMENT: pl-cz--d-iii-30--007_elsner-jozef--missa-in-c-op-26-dona.krn
!!!cenid: 18xx:8
!!!COM: Elsner, Józef
!!!COM-rismID: pe30000957
!!!CDT: 1769/06/01-1854/04/18
!!!CNT: Polish
!!!OPR: Missa in C op. 26
!!!OTL: Dona
!!!OMV: 007
!!!PDT: 1820
!!!AGN: Sacred; Mass
!!!SMS-siglum: PL-CZ
!!!SMS-shelfmark: D III-30
!!!SMS-shelfwork: 001-007 M
!!!NIFC-rismSourceID:
!!!NIFC-islandoraID:
!!!URL-pdf-islandora:
!!!URL-scan:
!!!ONB-nifc:
!!!AIN: 1 alto 1 bass 2 clars 2 cor 1 empty 1 fagot 1 flt 1 organ 1 soprn 1 tenor 1 timpa 1 tromb 1 viola 2 violn
!!!key:
**kern	**fb	**dynam	**kern	**kern	**kern	**dynam	**kern	**kern	**kern	**kern	**text	**dynam	**kern	**kern	**dynam	**kern	**kern	**kern	**kern	**dynam	**kern	**kern	**kern	**dynam
*part17	*	*part17	*part16	*part15	*part14	*part14	*part13	*part12	*part11	*part10	*part10	*part10	*part9	*part8	*part8	*part7	*part6	*part5	*part4	*part4	*part3	*part2	*part1	*part1
*staff17	*	*	*staff16	*staff15	*staff14	*	*staff13	*staff12	*staff11	*staff10	*staff10	*	*staff9	*staff8	*	*staff7	*staff6	*staff5	*staff4	*	*staff3	*staff2	*staff1	*
*Iorgan	*	*	*Iviola	*Ivioln	*Ivioln	*	*Ibass	*Itenor	*Ialto	*Isoprn	*	*	*Itimpa	*Itromb	*	*Iempty	*Icor	*Icor	*Ifagot	*	*Iclars	*Iclars	*Iflt	*
*I"ORGANO .	*	*	*I"VIOLA	*I"VIOLINO II .	*I"VIOLINO PRIMO.	*	*I"BASSO.	*I"TENORE .	*I"ALTO .	*I"SOPRANO.	*	*	*I"TYMPANI in C. G.	*I"TROMBONE BASSO .	*	*I"CLARINO I & II in C.	*I"CORNO IIdo in C	*I"CORNO Imo in C	*I"FAGOTTI I II .	*	*I"CLARINETTO . II	*I"CLARINETTO I. in C.	*I"FLAUTI I & II	*
*I'Org	*	*	*I'Vla	*I'Vn II	*I'Vn I	*	*I'B	*I'T	*I'A	*I'S	*	*	*I'Timp	*I'B Tbn	*	*I'Clno II	*I'Cor II	*I'Cor I	*I'Fg	*	*I'Cl II	*I'Cl I	*I'Fl	*
*clefF4	*	*	*clefC3	*clefG2	*clefG2	*	*clefF4	*clefC4	*clefC3	*clefC1	*	*	*clefF4	*clefF4	*	*clefG2	*clefG2	*clefG2	*clefF4	*	*clefG2	*clefG2	*clefG2	*
*k[]	*	*	*k[]	*k[]	*k[]	*	*k[]	*k[]	*k[]	*k[]	*	*	*k[]	*k[]	*	*k[]	*k[]	*k[]	*k[]	*	*k[]	*k[]	*k[]	*
*C:	*	*	*C:	*C:	*C:	*	*C:	*C:	*C:	*C:	*	*	*C:	*C:	*	*C:	*C:	*C:	*C:	*	*C:	*C:	*C:	*
*M6/8	*	*	*M6/8	*M6/8	*M6/8	*	*M6/8	*M6/8	*M6/8	*M6/8	*	*	*M6/8	*M6/8	*	*M6/8	*M6/8	*M6/8	*M6/8	*	*M6/8	*M6/8	*M6/8	*
=1	=1	=1	=1	=1	=1	=1	=1	=1	=1	=1	=1	=1	=1	=1	=1	=1	=1	=1	=1	=1	=1	=1	=1	=1
!	!	!	!	!	!	!	!	!	!	!	!	!	!	!	!	!	!	!	!	!	!	!	!LO:TX:a:B:t=Andantino	!
*	*	*	*	*	*	*	*	*	*	*^	*	*	*	*	*	*	*	*	*	*	*	*	*	*
2.C	.	p	2.c	4r	4r	.	4.C	4r	8r	8rc	4ryy	.	.	2.r	2.r	.	2.r	2.r	2.r	2.r	.	2.r	2.r	2.r	.
.	.	.	.	.	.	.	.	.	8e	8g	.	Do-	.	.	.	.	.	.	.	.	.	.	.	.	.
.	.	.	.	8r	8r	.	.	8r	8e	8g	8ryy	-na	.	.	.	.	.	.	.	.	.	.	.	.	.
.	.	.	.	4.G 4.e	(>4.g	.	4.C	8r	4e	4g	8ryy	nobis	.	.	.	.	.	.	.	.	.	.	.	.	.
.	.	.	.	.	.	.	.	8G	.	.	8g	.	.	.	.	.	.	.	.	.	.	.	.	.	.
.	.	.	.	.	.	.	.	8G	8r	8r	8ryy	.	.	.	.	.	.	.	.	.	.	.	.	.	.
=2	=2	=2	=2	=2	=2	=2	=2	=2	=2	=2	=2	=2	=2	=2	=2	=2	=2	=2	=2	=2	=2	=2	=2	=2	=2
*	*	*	*	*	*	*	*	*^	*	*	*	*	*	*	*	*	*	*	*	*	*	*	*	*	*
[2.C	.	.	[2.c	2.G 2.e	2.cc)	pp	4.C	4G	8ryy	8r	8r	4ryy	.	.	2.r	2.r	.	2.r	2.r	2.r	2.r	.	2.r	2.r	2.r	.
.	.	.	.	.	.	.	.	.	8G	8e	8cc	.	Do-	.	.	.	.	.	.	.	.	.	.	.	.	.
.	.	.	.	.	.	.	.	8r	8ryy	8e	8cc	8ryy	-na	.	.	.	.	.	.	.	.	.	.	.	.	.
.	.	.	.	.	.	.	4.C	8rD	4ryy	4e	4cc\	8ryy	nobis	.	.	.	.	.	.	.	.	.	.	.	.	.
.	.	.	.	.	.	.	.	8G	.	.	.	8cc	.	.	.	.	.	.	.	.	.	.	.	.	.	.
.	.	.	.	.	.	.	.	8G	8ryy	8r	8r	8ryy	.	.	.	.	.	.	.	.	.	.	.	.	.	.
*	*	*	*	*	*	*	*	*	*	*	*v	*v	*	*	*	*	*	*	*	*	*	*	*	*	*	*
=3	=3	=3	=3	=3	=3	=3	=3	=3	=3	=3	=3	=3	=3	=3	=3	=3	=3	=3	=3	=3	=3	=3	=3	=3	=3
8CL]	.	.	8cL]	4.G 4.e	4.ee	.	4.C	4G	8ryy	8r	8r	.	.	2.r	2.r	.	2.r	2.r	2.r	2.r	.	2.r	2.r	2.r	.
8G	.	.	8g	.	.	.	.	.	8G	8g	8ee	Do-	.	.	.	.	.	.	.	.	.	.	.	.	.
8EJ	.	.	8eJ	.	.	.	.	8r	8ryy	8g	8ee	-na	.	.	.	.	.	.	.	.	.	.	.	.	.
4.C	.	.	4.c	8gL	(>8eeL	.	4C	4r	4ryy	8gL	8eeL	no-	.	.	.	.	.	.	.	.	.	.	.	.	.
.	.	.	.	8a	8ff	.	.	.	.	8aJ	8ffJ	.	.	.	.	.	.	.	.	.	.	.	.	.	.
.	.	.	.	8gJ	8eeJ)	.	8r	8r	8ryy	8g	8ee	-bis	.	.	.	.	.	.	.	.	.	.	.	.	.
*	*	*	*	*	*	*	*	*v	*v	*	*	*	*	*	*	*	*	*	*	*	*	*	*	*	*
=4	=4	=4	=4	=4	=4	=4	=4	=4	=4	=4	=4	=4	=4	=4	=4	=4	=4	=4	=4	=4	=4	=4	=4	=4
(<8GGL	.	.	8GL	4g	4ee	.	2.r	2.r	(>4g	(>4ee	pa-	.	2.r	2.r	.	2.r	4r	4r	2.r	.	4r	4r	2.r	.
8AA	.	.	8A	.	.	.	.	.	.	.	.	.	.	.	.	.	.	.	.	.	.	.	.	.
8BBJ)	.	.	8BJ	8f	8dd	.	.	.	8f)	8dd)	.	.	.	.	.	.	8r	8r	.	.	8r	8r	.	.
[4.C	.	.	4.c	4.e	8ccL	.	.	.	4e	4cc	-cem	.	.	.	.	.	8r	8r	.	.	8r	8r	.	.
!	!	!	!	!	!	!	!	!	!	!LO:LB:G=original	!	!	!	!	!	!	!	!	!	!	!	!LO:TX:a:t=in C.	!	!
.	.	.	.	.	8g	.	.	.	.	.	.	.	.	.	.	.	8ccL	8eeL	.	.	8gL	8eeL	.	.
.	.	.	.	.	8eeJ	.	.	.	8r	8r	.	.	.	.	.	.	8ccJ	8eeJ	.	.	8gJ	8eeJ	.	.
!	!	!	!	!	!	!	!	!LO:LB:g=original	!	!	!	!	!	!	!	!	!	!	!	!	!	!	!	!
=5	=5	=5	=5	=5	=5	=5	=5	=5	=5	=5	=5	=5	=5	=5	=5	=5	=5	=5	=5	=5	=5	=5	=5	=5
8CL]	.	.	8cL	4.G 4.e	4.ee	.	8r	8r	2.r	2.r	.	.	2.r	2.r	.	2.r	4cc	4ee	2.r	.	4g	4ee	2.r	.
8G	.	.	8g	.	.	.	8G	8e	.	.	.	.	.	.	.	.	.	.	.	.	.	.	.	.
8EJ	.	.	8eJ	.	.	.	8G	8e	.	.	.	.	.	.	.	.	8r	8r	.	.	8r	8r	.	.
4.C	.	.	4.c	8gL	(>8eeL	.	8GL	8eL	.	.	.	.	.	.	.	.	4r	4r	.	.	4r	4r	.	.
.	.	.	.	8a	8ff	.	8AJ	8fJ	.	.	.	.	.	.	.	.	.	.	.	.	.	.	.	.
.	.	.	.	8gJ	8eeJ)	.	8G	8e	.	.	.	.	.	.	.	.	8r	8r	.	.	8r	8r	.	.
!LO:LB:g=original	!	!	!LO:LB:g=original	!	!LO:LB:g=original	!	!	!	!	!	!	!	!	!	!	!	!	!	!	!	!	!	!	!
=6	=6	=6	=6	=6	=6	=6	=6	=6	=6	=6	=6	=6	=6	=6	=6	=6	=6	=6	=6	=6	=6	=6	=6	=6
8GGL	.	.	8GL	4g	4ee	.	4G	4e	4r	4r	.	.	2.r	2.r	.	2.r	4r	4r	2.r	.	4r	4r	2.r	.
8AA	.	.	8A	.	.	.	.	.	.	.	.	.	.	.	.	.	.	.	.	.	.	.	.	.
8BBJ	.	.	8BJ	8f	8dd	.	8F	(>8d	8r	8r	.	.	.	.	.	.	8r	8r	.	.	8r	8r	.	.
4.C	3	.	4.c	(<4.e	(>8ccL	.	4E	4c)	8r	8r	.	.	.	.	.	.	8r	8r	.	.	8r	8r	.	.
.	.	.	.	.	8g	.	.	.	8g	8ee	Do-	.	.	.	.	.	8ccL	8eeL	.	.	8gL	8eeL	.	.
.	.	.	.	.	8eeJ)	.	8C	8r	8g	[8ee	-na	.	.	.	.	.	8ccJ	8eeJ	.	.	8gJ	8eeJ	.	.
!	!	!	!	!LO:LB:g=original	!	!	!LO:LB:g=original	!	!	!	!	!	!	!	!	!	!	!	!	!	!	!	!	!
=7	=7	=7	=7	=7	=7	=7	=7	=7	=7	=7	=7	=7	=7	=7	=7	=7	=7	=7	=7	=7	=7	=7	=7	=7
4.BB	7	.	4.B	4G) 4g	8eeL	.	4.BB	4r	4g	8eeL]	no-	.	2.r	2.r	.	2.r	4.g	4.dd	2.r	.	4g	(>8eeL	2.r	.
.	.	.	.	.	8dd	.	.	.	.	8ddJ	.	.	.	.	.	.	.	.	.	.	.	8ddJ)	.	.
.	6	.	.	8dd	(>8ggJ	.	.	8G	8g	8dd	-bis	.	.	.	.	.	.	.	.	.	8dd	8gg	.	.
4.AA	#6	.	4.A	4.cc	8ggL	.	4.AA	(>4.c	(>8gL	4.cc	pa-	.	.	.	.	.	4.cc	4.cc	.	.	4.cc	8ggL	.	.
.	.	.	.	.	16ff#XL	.	.	.	16f#XL	.	.	.	.	.	.	.	.	.	.	.	.	16ff#XL	.	.
.	.	.	.	.	16eeJ	.	.	.	16eJ	.	.	.	.	.	.	.	.	.	.	.	.	16eeJ	.	.
.	.	.	.	.	8ff#J)	.	.	.	8f#J)	.	.	.	.	.	.	.	.	.	.	.	.	8ff#J	.	.
=8	=8	=8	=8	=8	=8	=8	=8	=8	=8	=8	=8	=8	=8	=8	=8	=8	=8	=8	=8	=8	=8	=8	=8	=8
8GGL	.	.	8GL	4.b	4.gg	.	4GG	4d)	4g	4b	-cem	.	2.r	2.r	.	2.r	4.g	4.dd	2.r	.	4.b	4.gg	2.r	.
8D	.	.	8d	.	.	.	.	.	.	.	.	.	.	.	.	.	.	.	.	.	.	.	.	.
8BBJ	.	.	8BJ	.	.	.	8r	8r	8r	8r	.	.	.	.	.	.	.	.	.	.	.	.	.	.
8.GGL	.	.	8.GL	4b	4gg	.	4r	4r	8r	4r	.	.	.	.	.	.	4g	4dd	.	.	4b	4gg	.	.
.	.	.	.	.	.	.	.	.	8r	.	.	.	.	.	.	.	.	.	.	.	.	.	.	.
(<16FL	.	.	(>16fL	.	.	.	.	.	.	.	.	.	.	.	.	.	.	.	.	.	.	.	.	.
16E	.	.	16e	8r	8r	.	8r	8r	8r	8r	.	.	.	.	.	.	8r	8r	.	.	8r	8r	.	.
16DJJ)	.	.	16dJJ)	.	.	.	.	.	.	.	.	.	.	.	.	.	.	.	.	.	.	.	.	.
!	!	!	!	!	!	!	!	!	!	!	!	!	!	!	!	!	!	!LO:LB:g=original	!	!	!	!	!	!
=9	=9	=9	=9	=9	=9	=9	=9	=9	=9	=9	=9	=9	=9	=9	=9	=9	=9	=9	=9	=9	=9	=9	=9	=9
2.C	.	.	2.c	2.G 2.e	4r	.	4.C	4r	8r	8r	.	.	2.r	2.r	.	2.r	2.r	2.r	2.r	.	2.r	2.r	2.r	.
.	.	.	.	.	.	.	.	.	8e	8g	Do-	.	.	.	.	.	.	.	.	.	.	.	.	.
.	.	.	.	.	8r	.	.	8r	8e	8g	-na	.	.	.	.	.	.	.	.	.	.	.	.	.
.	.	.	.	.	4.g	.	4.C	8r	4e	4g	nobis	.	.	.	.	.	.	.	.	.	.	.	.	.
.	.	.	.	.	.	.	.	8G	.	.	.	.	.	.	.	.	.	.	.	.	.	.	.	.
.	.	.	.	.	.	.	.	8G	8r	8r	.	.	.	.	.	.	.	.	.	.	.	.	.	.
=10	=10	=10	=10	=10	=10	=10	=10	=10	=10	=10	=10	=10	=10	=10	=10	=10	=10	=10	=10	=10	=10	=10	=10	=10
2.C	.	.	2.c	2.G 2.e	2.cc	.	4.C	4G	8r	8r	.	.	2.r	2.r	.	2.r	2.r	2.r	2.r	.	2.r	2.r	2.r	.
.	.	.	.	.	.	.	.	.	8e	8cc	Do-	.	.	.	.	.	.	.	.	.	.	.	.	.
.	.	.	.	.	.	.	.	8r	8e	8cc	-na	.	.	.	.	.	.	.	.	.	.	.	.	.
.	.	.	.	.	.	.	4.C	8r	4e	4cc	nobis	.	.	.	.	.	.	.	.	.	.	.	.	.
.	.	.	.	.	.	.	.	8G	.	.	.	.	.	.	.	.	.	.	.	.	.	.	.	.
.	.	.	.	.	.	.	.	8G	8r	8r	.	.	.	.	.	.	.	.	.	.	.	.	.	.
!	!	!	!	!	!	!	!	!LO:LB:g=original	!	!LO:LB:g=original	!	!	!	!	!	!	!	!	!	!	!	!	!	!
=11	=11	=11	=11	=11	=11	=11	=11	=11	=11	=11	=11	=11	=11	=11	=11	=11	=11	=11	=11	=11	=11	=11	=11	=11
8CL	.	.	8cL	4.G 4.e	4.ee	.	4.C	4G	8r	8r	.	.	2.r	2.r	.	2.r	2.r	2.r	2.r	.	2.r	2.r	2.r	.
8G	.	.	8g	.	.	.	.	.	8g	8ee	Do-	.	.	.	.	.	.	.	.	.	.	.	.	.
8EJ	.	.	8eJ	.	.	.	.	8r	8g	8ee	-na	.	.	.	.	.	.	.	.	.	.	.	.	.
4.C	.	.	4.c	(<8gL	8eeL	.	4C	4r	8gL	8eeL	no-	.	.	.	.	.	.	.	.	.	.	.	.	.
.	.	.	.	8a	8ff	.	.	.	8aJ	8ffJ	.	.	.	.	.	.	.	.	.	.	.	.	.	.
.	.	.	.	8gJ)	8eeJ	.	8r	8r	8g	8ee	-bis	.	.	.	.	.	.	.	.	.	.	.	.	.
!	!	!	!	!	!	!	!	!	!LO:LB:g=original	!	!	!	!	!	!	!	!LO:LB:g=original	!	!	!	!	!LO:LB:g=original	!	!
=12	=12	=12	=12	=12	=12	=12	=12	=12	=12	=12	=12	=12	=12	=12	=12	=12	=12	=12	=12	=12	=12	=12	=12	=12
8GGL	.	.	8GL	4g	(>4ee	.	2.r	2.r	(>4g	(>4ee	pa-	.	2.r	2.r	.	2.r	4r	4r	4r	.	4r	4r	4r	.
8AA	.	.	8A	.	.	.	.	.	.	.	.	.	.	.	.	.	.	.	.	.	.	.	.	.
8BBJ	.	.	8BJ	8f	8dd	.	.	.	8f)	8dd)	.	.	.	.	.	.	8r	8r	8r	.	8r	8r	8r	.
4.C	.	.	4.c	4.e	8ccL	.	.	.	4e	4cc	-cem	.	.	.	.	.	8r	8r	8r	.	8r	8r	8r	.
.	.	.	.	.	8g	.	.	.	.	.	.	.	.	.	.	.	8ccL	8eeL	8CL 8G	.	8gL	8eeL	8eeL 8ccc	.
.	.	.	.	.	8eeJ)	.	.	.	8r	8r	.	.	.	.	.	.	8ccJ	8eeJ	8CJ 8G	.	8gJ	8eeJ	8eeJ 8ccc	.
!LO:LB:g=original	!	!	!LO:LB:g=original	!	!LO:LB:g=original	!	!	!	!	!	!	!	!	!	!	!	!	!	!	!	!	!	!	!
=13	=13	=13	=13	=13	=13	=13	=13	=13	=13	=13	=13	=13	=13	=13	=13	=13	=13	=13	=13	=13	=13	=13	=13	=13
8CL	.	.	8cL	4.G 4.e	[4.ee	.	8r	8r	2.r	2.r	.	.	2.r	2.r	.	2.r	4cc	4ee	4C 4G	.	4g	4ee	4ee 4ccc	.
8G	.	.	8g	.	.	.	8G	8e	.	.	.	.	.	.	.	.	.	.	.	.	.	.	.	.
8EJ	.	.	8eJ	.	.	.	8G	8e	.	.	.	.	.	.	.	.	8r	8r	8r	.	8r	8r	8r	.
4.C	.	.	4.c/	(<8gL	8eeL]	.	8GL	8eL	.	.	.	.	.	.	.	.	4r	4r	4r	.	4r	4r	4r	.
.	.	.	.	8a	(>8ff	.	8AJ	8fJ	.	.	.	.	.	.	.	.	.	.	.	.	.	.	.	.
.	.	.	.	8gJ)	8eeJ	.	8G	8e	.	.	.	.	.	.	.	.	8r	8r	8r	.	8r	8r	8r	.
!	!	!	!	!LO:LB:g=original	!	!	!LO:LB:g=original	!	!	!	!	!	!	!	!	!	!	!	!	!	!LO:LB:g=original	!	!	!
=14	=14	=14	=14	=14	=14	=14	=14	=14	=14	=14	=14	=14	=14	=14	=14	=14	=14	=14	=14	=14	=14	=14	=14	=14
8GGL	.	.	8GL	4g	4ee	.	4G	(>4e	4r	4r	.	.	2.r	4r	.	4r	4r	4r	4r	.	4r	4r	4r	.
8AA	.	.	8A	.	.	.	.	.	.	.	.	.	.	.	.	.	.	.	.	.	.	.	.	.
8BBJ	.	.	8BJ	8f	8dd)	.	8F	8d)	8r	8r	.	.	.	8r	.	8r	8r	8r	8r	.	8r	8r	8r	.
4C	.	.	4c/	4e	8ccL	.	8E	8c	8r	8r	.	.	.	8r	.	8r	8r	8r	8r	.	8r	8r	8r	.
.	.	.	.	.	8g	.	8C	8c	8g	8ee	Do-	.	.	8CL	.	8ccL	8ccL	8eeL	8CL	.	8gL	8eeL	8ggL 8eee	.
8BB-X	2	.	8B-X	8c 8g	8eeJ	.	8BB-X	8c	8g	8ee	-na	.	.	8BB-XJ	.	8ccJ	8ccJ	8eeJ	8BB-XJ	.	8gJ	8eeJ	(>8ggJ 8eee	<
=15	=15	=15	=15	=15	=15	=15	=15	=15	=15	=15	=15	=15	=15	=15	=15	=15	=15	=15	=15	=15	=15	=15	=15	=15
4AA	6	.	4A	4c 4a	4ff	.	4AA	4c	4a	4ff	no-	.	2.r	4AA	.	4cc	4cc	4cc	4AA	<	4a\	4ff	4aa 4fff	.
8AA-X	6 4n 2	.	8A-X	8a-X 8b	8ff	.	8AA-X	8d	8b	8ff	-bis	.	.	8AA-X	.	8dd	8dd	8dd	8AA-X	.	8b	8ff	8aa 8fff	.
*	*	*	*	*^	*	*	*	*	*	*	*	*	*	*	*	*	*	*	*	*	*	*	*	*
4.GG	6 4	.	4.G	4cc	4.g	4ee	.	4.GG	4c	4cc	4ee	pa-	.	.	4.GG	.	8r	4cc	4ee	4.GG	[[	4cc	4ee	4ccc 4eee	.
.	.	.	.	.	.	.	.	.	.	.	.	.	.	.	.	.	8ccL 8ee	.	.	.	.	.	.	.	.
!	!	!	!	!	!	!	!	!	!	!	!	!	!	!	!	!	!	!	!	!	!	!	!	!LO:TX:a:t=problem&colon; nieprezycyjne zakończenie łuku	!
.	5 3	.	.	8b	.	8dd	.	.	8B	16gLL	8dd	.	.	.	.	.	8gJ 8dd	8g	8dd	.	.	8b	8dd	8bb) 8ddd	[[
.	.	.	.	.	.	.	.	.	.	16fJJ	.	.	.	.	.	.	.	.	.	.	.	.	.	.	.
*	*	*	*	*v	*v	*	*	*	*	*	*	*	*	*	*	*	*	*	*	*	*	*	*	*	*
=16	=16	=16	=16	=16	=16	=16	=16	=16	=16	=16	=16	=16	=16	=16	=16	=16	=16	=16	=16	=16	=16	=16	=16	=16
*	*	*	*	*	*	*	*	*	*	*	*	*	*	*	*	*	*	*	*^	*	*	*	*^	*
*	*	*	*tremolo	*	*	*	*	*	*	*	*	*	*tremolo	*	*	*	*	*	*	*	*	*	*	*	*	*
8CL	8 3	.	8cL	8eL	8ccL	.	4.C	8cL	8eL	8ccL	-cem	.	16CLL	2.C	.	8e 8cc	2.c	8eeL	8cL	8CL	[	8ccL	8ccL	8cccL	8eeL	[
.	.	.	.	.	.	.	.	.	.	.	.	.	16C	.	.	.	.	.	.	.	.	.	.	.	.	.
8C	9 4	.	8c	8f	8dd	.	.	8B	8f	8dd	.	.	16C	.	.	8r	.	8ff	8B	8C	.	8b	8dd	8ddd	8ff	.
.	.	.	.	.	.	.	.	.	.	.	.	.	16C	.	.	.	.	.	.	.	.	.	.	.	.	.
8CJ	10 5	.	8c	8gJ	8eeJ	.	.	8B-XJ	8gJ	8eeJ	.	.	16C	.	.	8r	.	8ggJ	8B-XJ	8CJ	.	8b-XJ	8eeJ	8eeeJ	8ggJ	.
.	.	.	.	.	.	.	.	.	.	.	.	.	16C	.	.	.	.	.	.	.	.	.	.	.	.	.
8CL	6 4	.	8c	(<4a	4ff	.	4C	4A	4a	4ff	Do-	.	16C	.	.	8c 8cc	.	4.cc	(>4A	8CL	.	4a	4ff	4fff	4aa	.
.	.	.	.	.	.	.	.	.	.	.	.	.	16C	.	.	.	.	.	.	.	.	.	.	.	.	.
8C	.	.	8c	.	.	.	.	.	.	.	.	.	16C	.	.	8r	.	.	.	8C	.	.	.	.	.	.
.	.	.	.	.	.	.	.	.	.	.	.	.	16C	.	.	.	.	.	.	.	.	.	.	.	.	.
8CJ	5 3	.	8cJ	8g)	8ee	.	8C	8c	8g	8ee	-na	.	16C	.	.	8r	.	.	8c)	8CJ	.	8g	8ee	8eee	8gg	.
.	.	.	.	.	.	.	.	.	.	.	.	.	16CJJ	.	.	.	.	.	.	.	.	.	.	.	.	.
!	!	!	!	!	!	!	!	!LO:LB:g=original	!	!	!	!	!	!	!	!LO:LB:g=original	!	!	!LO:LB:g=original	!LO:LB:g=original	!	!	!	!	!	!
*	*	*	*	*	*	*	*	*	*	*	*	*	*	*	*	*	*	*	*	*	*	*	*	*v	*v	*
=17	=17	=17	=17	=17	=17	=17	=17	=17	=17	=17	=17	=17	=17	=17	=17	=17	=17	=17	=17	=17	=17	=17	=17	=17	=17
*	*	*	*	*tremolo	*	*	*	*	*	*	*	*	*	*	*	*	*	*	*	*	*	*	*	*	*
8CL	7 2	.	8cL	(<16fLL	16eeLL	.	4C	4B	4f	4dd	no-	.	16CLL	2.C	.	(<2.c	2.c	2.ff	2.f	8CL	.	2.b	2.dd	2.bb 2.ddd	.
.	.	.	.	16b	16dd	.	.	.	.	.	.	.	16C	.	.	.	.	.	.	.	.	.	.	.	.
8C	.	.	8c	16f	16cc#X	.	.	.	.	.	.	.	16C	.	.	.	.	.	.	8C	.	.	.	.	.
.	.	.	.	16b	16dd	.	.	.	.	.	.	.	16C	.	.	.	.	.	.	.	.	.	.	.	.
8CJ	.	.	8c	16f	16cc#	.	8C	8B	8f	8dd	-bis	.	16C	.	.	.	.	.	.	8C	.	.	.	.	.
.	.	.	.	16b	16ddJJ	.	.	.	.	.	.	.	16C	.	.	.	.	.	.	.	.	.	.	.	.
8CL	.	.	8c	16f	16eeLL	.	4.C	4.B	4.f	4.dd	pa-	.	16C	.	.	.	.	.	.	8C	.	.	.	.	.
.	.	.	.	16b	16dd	.	.	.	.	.	.	.	16C	.	.	.	.	.	.	.	.	.	.	.	.
8C	.	.	8c	16f	16cc#	.	.	.	.	.	.	.	16C	.	.	.	.	.	.	8C	.	.	.	.	.
.	.	.	.	16b	16dd	.	.	.	.	.	.	.	16C	.	.	.	.	.	.	.	.	.	.	.	.
8CJ	.	.	8cJ	16f	16aa	.	.	.	.	.	.	.	16C	.	.	.	.	.	.	8CJ	.	.	.	.	.
.	.	.	.	16bJJ)	16ggJJ	.	.	.	.	.	.	.	16CJJ	.	.	.	.	.	.	.	.	.	.	.	.
!	!	!	!	!	!	!	!	!	!	!LO:LB:g=original	!	!	!	!	!	!	!	!	!	!	!	!	!	!	!
=18	=18	=18	=18	=18	=18	=18	=18	=18	=18	=18	=18	=18	=18	=18	=18	=18	=18	=18	=18	=18	=18	=18	=18	=18	=18
*	*	*	*	*	*	*	*	*	*	*	*	*	*	*	*	*	*	*	*	*	*	*	*	*^	*
8CL	8 3	.	8cL	8eL	8ccL	.	4.C	8cL	8eL	8ccL	-cem	.	16CLL	2.C	.	8e) 8cc	2.c	8eeL	8cL	8CL	.	8ccL	8ccL	8cccL	8eeL	.
.	.	.	.	.	.	.	.	.	.	.	.	.	16C	.	.	.	.	.	.	.	.	.	.	.	.	.
8C	9 4	.	8c	8f	8dd	.	.	8B	8f	8dd	.	.	16C	.	.	8r	.	8ff	8B	8C	.	8b	8dd	8ddd	8ff	.
.	.	.	.	.	.	.	.	.	.	.	.	.	16C	.	.	.	.	.	.	.	.	.	.	.	.	.
8CJ	10 5	.	8c	8gJ	8eeJ	.	.	8B-XJ	8gJ	8eeJ	.	.	16C	.	.	8r	.	8ggJ	8B-XJ	8CJ	.	8b-XJ	8eeJ	8eeeJ	8ggJ	.
.	.	.	.	.	.	.	.	.	.	.	.	.	16C	.	.	.	.	.	.	.	.	.	.	.	.	.
!	!	!	!	!	!	!	!	!	!	!	!	!	!	!	!	!	!	!	!	!	!	!	!	!LO:LB:g=original	!LO:LB:g=original	!
8CL	6 4	.	8c	<4a	4ff	.	4C	4A	4a	4ff	Do-	.	16C	.	.	8c 8cc	.	4.cc	4A	8CL	.	4a	4ff	4fff	4aa	.
.	.	.	.	.	.	.	.	.	.	.	.	.	16C	.	.	.	.	.	.	.	.	.	.	.	.	.
8C	.	.	8c	.	.	.	.	.	.	.	.	.	16C	.	.	8r	.	.	.	8C	.	.	.	.	.	.
.	.	.	.	.	.	.	.	.	.	.	.	.	16C	.	.	.	.	.	.	.	.	.	.	.	.	.
8CJ	5 3	.	8cJ	8g	8ee	.	8C	8c	8g	8ee	-na	.	16C	.	.	8r	.	.	8c	8CJ	.	8g	8ee	8eee	8gg	.
.	.	.	.	.	.	.	.	.	.	.	.	.	16CJJ	.	.	.	.	.	.	.	.	.	.	.	.	.
!	!	!	!	!	!	!	!	!	!	!	!	!	!	!	!	!	!	!LO:LB:g=original	!	!	!	!	!	!	!	!
*	*	*	*	*	*	*	*	*	*	*	*	*	*	*	*	*	*	*	*	*	*	*	*	*v	*v	*
=19	=19	=19	=19	=19	=19	=19	=19	=19	=19	=19	=19	=19	=19	=19	=19	=19	=19	=19	=19	=19	=19	=19	=19	=19	=19
*	*	*	*	*	*	*	*	*	*	*	*	*	*	*	*	*	*	*	*	*	*	*	*	*	*
8CL	7 2	.	8cL	16fLL	16eeLL	.	4C	4B	4f	4dd	no-	.	16CLL	2.C	.	2.c	2.c	2.ff	2.f	8CL	.	2.b	2.dd	2.bb 2.ddd	.
.	.	.	.	16b	16dd	.	.	.	.	.	.	.	16C	.	.	.	.	.	.	.	.	.	.	.	.
8C	.	.	8c	16f	16cc#X	.	.	.	.	.	.	.	16C	.	.	.	.	.	.	8C	.	.	.	.	.
.	.	.	.	16b	16dd	.	.	.	.	.	.	.	16C	.	.	.	.	.	.	.	.	.	.	.	.
8CJ	.	.	8c	16f	16cc#	.	8C	8B	8f	8dd	-bis	.	16C	.	.	.	.	.	.	8C	.	.	.	.	.
.	.	.	.	16b	16ddJJ	.	.	.	.	.	.	.	16C	.	.	.	.	.	.	.	.	.	.	.	.
8CL	.	.	8c	16f	16eeLL	.	4.C	4.B	4.f	4.dd	pa-	.	16C	.	.	.	.	.	.	8C	.	.	.	.	.
.	.	.	.	16b	16dd	.	.	.	.	.	.	.	16C	.	.	.	.	.	.	.	.	.	.	.	.
8C	.	.	8c	16f	16cc#	.	.	.	.	.	.	.	16C	.	.	.	.	.	.	8C	.	.	.	.	.
.	.	.	.	16b	16dd	.	.	.	.	.	.	.	16C	.	.	.	.	.	.	.	.	.	.	.	.
8CJ	.	.	8cJ	16f	16aa	.	.	.	.	.	.	.	16C	.	.	.	.	.	.	8CJ	.	.	.	.	.
.	.	.	.	16bJJ	16ggJJ	.	.	.	.	.	.	.	16CJJ	.	.	.	.	.	.	.	.	.	.	.	.
!LO:LB:g=original	!	!	!	!LO:LB:g=original	!LO:LB:g=original	!	!LO:LB:g=original	!	!	!	!	!	!	!LO:LB:g=original	!	!	!	!	!	!	!	!	!	!	!
*	*	*	*	*	*	*	*	*	*	*	*	*	*	*	*	*	*	*	*v	*v	*	*	*	*	*
=20	=20	=20	=20	=20	=20	=20	=20	=20	=20	=20	=20	=20	=20	=20	=20	=20	=20	=20	=20	=20	=20	=20	=20	=20
*	*	*	*	*	*	*	*	*	*	*	*	*	*	*	*	*	*	*	*	*	*	*	*^	*
8CL	8 3	.	8cL/	16ccLL	8eeL	.	8CL	4.c	8eL	4.cc	-cem	.	16CLL	(>8CL	.	4c	4c	8eeL	8CL	.	4.cc	4.cc	2.ccc	8eeL	.
.	.	.	.	16cc	.	.	.	.	.	.	.	.	16C	.	.	.	.	.	.	.	.	.	.	.	.
8D	7 3	.	8d	16cc	8ff	.	8D	.	8f	.	.	.	16C	8D	.	.	.	8ff	8D	.	.	.	.	8ff	.
.	.	.	.	16cc	.	.	.	.	.	.	.	.	16C	.	.	.	.	.	.	.	.	.	.	.	.
8EJ	6 3	.	8eJ	16cc	8ggJ	.	8EJ	.	8gJ	.	.	.	16C	8EJ	.	8r	8r	8ggJ	8EJ	.	.	.	.	8ggJ	.
.	.	.	.	16cc	.	.	.	.	.	.	.	.	16C	.	.	.	.	.	.	.	.	.	.	.	.
*	*	*	*	*	*tremolo	*	*	*	*	*	*	*	*	*	*	*	*	*	*	*	*	*	*	*	*
8D#XL	7 5 3	.	8d#XL	16cc	16aaLL	.	4D#X	4A	4f#X	4cc	Do-	.	16C	4.D#X)	.	4.c 4.cc	4.cc	4.cc	8D#XL	.	4.cc	4.ff#X	.	4.aa	.
.	.	.	.	16cc	16aa	.	.	.	.	.	.	.	16C	.	.	.	.	.	.	.	.	.	.	.	.
8D#	.	.	8d#	16cc	16aa	.	.	.	.	.	.	.	16C	.	.	.	.	.	8D#	.	.	.	.	.	.
.	.	.	.	16cc	16aa	.	.	.	.	.	.	.	16C	.	.	.	.	.	.	.	.	.	.	.	.
8D#J	.	.	8d#J	16cc	16aa	.	8D#	8c	8f#	8a	-na	.	16C	.	.	.	.	.	(>8D#J	.	.	.	.	.	.
.	.	.	.	16ccJJ	16aaJJ	.	.	.	.	.	.	.	16CJJ	.	.	.	.	.	.	.	.	.	.	.	.
!	!	!	!LO:LB:g=original	!	!	!	!	!	!	!	!	!	!	!	!	!	!LO:LB:g=original	!	!	!	!	!	!	!	!
=21	=21	=21	=21	=21	=21	=21	=21	=21	=21	=21	=21	=21	=21	=21	=21	=21	=21	=21	=21	=21	=21	=21	=21	=21	=21
8EL	6 4	.	8eL	16ccLL	16aaLL	.	4.E	4.c	4.a	4.ee	no-	.	4C	4.E	.	8r	2.e	2.ee	8EL)	.	4cc	4.ee	4.ccc	4.aa	.
.	.	.	.	16cc	16aa	.	.	.	.	.	.	.	.	.	.	.	.	.	.	.	.	.	.	.	.
8E	.	.	8e	16cc	16aa	.	.	.	.	.	.	.	.	.	.	8eL	.	.	8E	.	.	.	.	.	.
.	.	.	.	16cc	16aa	.	.	.	.	.	.	.	.	.	.	.	.	.	.	.	.	.	.	.	.
8EJ	.	.	8eJ	16cc	16aa	.	.	.	.	.	.	.	8r	.	.	8eJ	.	.	8EJ	.	8a	.	.	.	.
.	.	.	.	16ccJJ	16aaJJ	.	.	.	.	.	.	.	.	.	.	.	.	.	.	.	.	.	.	.	.
8EL	4 #3	.	8eL	16bLL	16aaLL	.	4.E	4.B	(>4a	4ee	-bis	.	4r	4.E	.	8r	.	.	8EL	.	4a	4ee	4.bb	4aa	.
.	.	.	.	16b	16aa	.	.	.	.	.	.	.	.	.	.	.	.	.	.	.	.	.	.	.	.
8E	.	.	8e	16b	16aa	.	.	.	.	.	.	.	.	.	.	8eL	.	.	8E	.	.	.	.	.	.
.	.	.	.	16b	16aaJJ	.	.	.	.	.	.	.	.	.	.	.	.	.	.	.	.	.	.	.	.
*	*	*	*	*	*Xtremolo	*	*	*	*	*	*	*	*	*	*	*	*	*	*	*	*	*	*	*	*
8EJ	.	.	8eJ	16b	16gg#XLL	.	.	.	8g#X)	16eeLL	.	.	8r	.	.	8eJ	.	.	8EJ	.	8g#X	16eeLL	.	8gg#X	.
.	.	.	.	16bJJ	16gg#JJ	.	.	.	.	16ddJJ	.	.	.	.	.	.	.	.	.	.	.	16ddJJ	.	.	.
*	*	*	*Xtremolo	*Xtremolo	*	*	*	*	*	*	*	*	*	*	*	*	*	*	*	*	*	*	*	*	*
!	!	!	!	!	!	!	!	!	!	!	!	!	!	!	!	!	!	!	!	!	!	!LO:LB:g=original	!	!	!
=22	=22	=22	=22	=22	=22	=22	=22	=22	=22	=22	=22	=22	=22	=22	=22	=22	=22	=22	=22	=22	=22	=22	=22	=22	=22
8AAL	8 3	.	8AL	16ccLL	16aaLL	.	8AAL	4.e	4a	8ccL	pa-	.	4r	8AAL	.	4e	4e	4ee	8AAL	.	4a	8ccL	8cccL	4aa	.
.	.	.	.	16cc	16ee	.	.	.	.	.	.	.	.	.	.	.	.	.	.	.	.	.	.	.	.
8BB	8 3	.	8B	16dd	16ee	.	8BB	.	.	8dd	.	.	.	8BB	.	.	.	.	8BB	.	.	8dd	8ddd	.	.
.	.	.	.	16dd	16ee	.	.	.	.	.	.	.	.	.	.	.	.	.	.	.	.	.	.	.	.
8CJ	8 3	.	8cJ	16ee	16ee	.	8CJ	.	16aLL	8eeJ	.	.	8r	8CJ	.	4r	8r	8r	8CJ	.	8r	8eeJ	[8eeeJ	8r	.
.	.	.	.	16eeJJ	16eeJJ	.	.	.	16gJJ	.	.	.	.	.	.	.	.	.	.	.	.	.	.	.	.
*	*	*	*	*tremolo	*tremolo	*	*	*	*	*	*	*	*	*	*	*	*	*	*	*	*	*	*	*	*
8DL	9	.	8dL/	16eeLL	16ffLL	.	4D	4.f	4f	4ee	-cem	.	4r	4D	.	.	4dd	4dd	8DL	.	4a	4.ff	4eee]	4.ff	.
.	.	.	.	16ee	16ff	.	.	.	.	.	.	.	.	.	.	.	.	.	.	.	.	.	.	.	.
8D	8	.	8d	16ee	16ff	.	.	.	.	.	.	.	.	.	.	8r	.	.	8D	.	.	.	.	.	.
.	.	.	.	16eeJJ	16ff	.	.	.	.	.	.	.	.	.	.	.	.	.	.	.	.	.	.	.	.
*	*	*	*	*Xtremolo	*	*	*	*	*	*	*	*	*	*	*	*	*	*	*	*	*	*	*	*	*
8BBJ	6 5	.	8BJ	16ddLL	16ff	.	8BB	.	8g	8dd	Do-	.	8GG	8BB	.	8g 8dd	8g	8dd	8BBJ	.	8g	.	8ddd	.	.
.	.	.	.	16ddJJ	16ffJJ	.	.	.	.	.	.	.	.	.	.	.	.	.	.	.	.	.	.	.	.
!	!	!	!	!	!	!	!	!	!	!	!	!	!LO:LB:g=original	!	!	!	!	!	!	!	!	!	!	!	!
=23	=23	=23	=23	=23	=23	=23	=23	=23	=23	=23	=23	=23	=23	=23	=23	=23	=23	=23	=23	=23	=23	=23	=23	=23	=23
*	*	*	*	*tremolo	*	*	*	*	*	*	*	*	*	*	*	*	*	*	*	*	*	*	*	*	*
8CL	9	.	8cL	16ddLL	16eeLL	.	4C	4.e	4g	4dd	.	.	4C	4C	.	4cc 4ee	4.cc	4.ee	8CL	.	4g	4.ee	4ddd	4.ee	.
.	.	.	.	16dd	16ee	.	.	.	.	.	.	.	.	.	.	.	.	.	.	.	.	.	.	.	.
8C	8	.	8c	16dd	16ee	.	.	.	.	.	.	.	.	.	.	.	.	.	8C	.	.	.	.	.	.
.	.	.	.	16ddJJ	16ee	.	.	.	.	.	.	.	.	.	.	.	.	.	.	.	.	.	.	.	.
*	*	*	*	*Xtremolo	*	*	*	*	*	*	*	*	*	*	*	*	*	*	*	*	*	*	*	*	*
8AAJ	.	.	8AJ	16ccLL	16ee	.	8AA	.	8a	8cc	.	.	8r	8AA	.	4r	.	.	8AAJ	.	8a	.	8ccc	.	.
.	.	.	.	16ccJJ	16eeJJ	.	.	.	.	.	.	.	.	.	.	.	.	.	.	.	.	.	.	.	.
*	*	*	*	*tremolo	*	*	*	*	*	*	*	*	*	*	*	*	*	*	*	*	*	*	*	*	*
8FF#XL	6 5	.	8F#XL	16ccLL	16ddLL	.	4F#X	4.d	4a	4cc	.	.	4r	4FF#X	.	.	4cc	4.dd	8FF#XL	.	4g	4.dd	4ccc	4.dd	.
.	.	.	.	16cc	16dd	.	.	.	.	.	.	.	.	.	.	.	.	.	.	.	.	.	.	.	.
8FF#	.	.	8F#	16cc	16dd	.	.	.	.	.	.	.	.	.	.	8r	.	.	8FF#	.	.	.	.	.	.
.	.	.	.	16ccJJ	16dd	.	.	.	.	.	.	.	.	.	.	.	.	.	.	.	.	.	.	.	.
*	*	*	*	*Xtremolo	*	*	*	*	*	*	*	*	*	*	*	*	*	*	*	*	*	*	*	*	*
8GGJ	.	.	8GJ	16bLL	16dd	.	8G	.	8g	8b	.	.	8r	8GG	.	8g 8dd	8g	.	8GGJ	.	8a	.	8bb	.	.
.	.	.	.	16bJJ	16ddJJ	.	.	.	.	.	.	.	.	.	.	.	.	.	.	.	.	.	.	.	.
!	!	!	!	!	!	!	!	!LO:LB:g=original	!	!	!	!	!	!	!	!LO:LB:g=original	!	!	!	!	!LO:LB:g=original	!	!	!	!
=24	=24	=24	=24	=24	=24	=24	=24	=24	=24	=24	=24	=24	=24	=24	=24	=24	=24	=24	=24	=24	=24	=24	=24	=24	=24
8DL	#3 1	.	16dLL	16f#XLL	16ddLL	.	8DL	4.d	8f#XL	4.dd	-na	.	2.r	4.D	.	[4.dd	2.dd	2.dd	8DL	.	8f#XL	8ddL	8ff#XL	8ddL	.
.	.	.	16d	16f#	16dd	.	.	.	.	.	.	.	.	.	.	.	.	.	.	.	.	.	.	.	.
8D	4 2	.	16e	16g	16dd	.	8E	.	8g	.	.	.	.	.	.	.	.	.	8D	.	8g	8ee	8gg	8ee	.
.	.	.	16e	16g	16ddJJ	.	.	.	.	.	.	.	.	.	.	.	.	.	.	.	.	.	.	.	.
*	*	*	*	*	*Xtremolo	*	*	*	*	*	*	*	*	*	*	*	*	*	*	*	*	*	*	*	*
8DJ	5 3	.	16f#X	16a	16dddLL	.	8F#XJ	.	8aJ	.	.	.	.	.	.	.	.	.	8D	.	8aJ	8ff#XJ	8aaJ	8ff#J	.
.	.	.	16f#JJ	16aJJ	16dddJJ	.	.	.	.	.	.	.	.	.	.	.	.	.	.	.	.	.	.	.	.
!	!	!	!	!	!	!	!	!	!	!	!	!	!	!	!	!	!	!	!	!	!	!	!LO:LB:g=original	!	!
*	*	*	*	*tremolo	*tremolo	*	*	*	*	*	*	*	*	*	*	*	*	*	*	*	*	*	*	*	*
8DL	6- 4	.	16gLL	16b-XLL	16dddLL	.	4G	4.d	4b-X	4.dd	no-	.	.	4.D	.	8ddL]	.	.	8D	.	8b-XL	4gg	4bb-X	4gg	.
.	.	.	16g	16b-	16ddd	.	.	.	.	.	.	.	.	.	.	.	.	.	.	.	.	.	.	.	.
8D	5 3	.	16g	16b-	16ddd	.	.	.	.	.	.	.	.	.	.	8dd	.	.	8D	.	8a	.	.	.	.
.	.	.	16gJJ	16b-JJ	16dddJJ	.	.	.	.	.	.	.	.	.	.	.	.	.	.	.	.	.	.	.	.
*	*	*	*	*Xtremolo	*Xtremolo	*	*	*	*	*	*	*	*	*	*	*	*	*	*	*	*	*	*	*	*
8DJ	4 2	.	16f#LL	(<16aLL	16ddLL	.	16F#XLL	.	16aLL	.	.	.	.	.	.	8ddJ	.	.	8DJ	.	8gJ	16ff#LL	16aaLL	16ff#LL	.
.	.	.	16eJJ	16gJJ)	16ddJJ	.	16EJJ	.	16gJJ	.	.	.	.	.	.	.	.	.	.	.	.	16eeJJ	16ggJJ	16eeJJ	.
!	!	!	!	!	!	!	!LO:LB:g=original	!	!	!LO:LB:g=original	!	!	!	!	!	!	!	!	!	!	!	!	!	!	!
=25	=25	=25	=25	=25	=25	=25	=25	=25	=25	=25	=25	=25	=25	=25	=25	=25	=25	=25	=25	=25	=25	=25	=25	=25	=25
*	*	*	*	*	*tremolo	*	*	*	*	*	*	*	*	*	*	*	*	*	*	*	*	*	*	*	*
8DL	#3 1	.	16dLL	16f#XLL	16ddLL	.	8DL	4.d	8f#XL	4.dd	-bis	.	2.r	4.D	.	4.dd	2.dd	2.dd	8DL	.	8f#XL	8ddL	8ff#XL	8ddL	.
.	.	.	16d	16f#	16dd	.	.	.	.	.	.	.	.	.	.	.	.	.	.	.	.	.	.	.	.
8D	4 2	.	16e	16g	16dd	.	8E	.	8g	.	.	.	.	.	.	.	.	.	8D	.	8g	8ee	8gg	8ee	.
.	.	.	16e	16g	16ddJJ	.	.	.	.	.	.	.	.	.	.	.	.	.	.	.	.	.	.	.	.
*	*	*	*	*	*Xtremolo	*	*	*	*	*	*	*	*	*	*	*	*	*	*	*	*	*	*	*	*
8DJ	5 3	.	16f#X	16a	16dddLL	.	8F#XJ	.	8aJ	.	.	.	.	.	.	.	.	.	8D	.	8aJ	8ff#XJ	8aaJ	8ff#J	.
.	.	.	16f#JJ	16aJJ	16dddJJ	.	.	.	.	.	.	.	.	.	.	.	.	.	.	.	.	.	.	.	.
*	*	*	*	*tremolo	*tremolo	*	*	*	*	*	*	*	*	*	*	*	*	*	*	*	*	*	*	*	*
8DL	6- 4	.	16gLL	16b-XLL	16dddLL	.	4G	4.d	4b-X	4.dd	pa-	.	.	4.D	.	8ddL	.	.	8D	.	8b-XL	4gg	4bb-X	4gg	.
.	.	.	16g	16b-	16ddd	.	.	.	.	.	.	.	.	.	.	.	.	.	.	.	.	.	.	.	.
8D	5 3	.	16g	16b-	16ddd	.	.	.	.	.	.	.	.	.	.	8dd	.	.	8D	.	8a	.	.	.	.
.	.	.	16gJJ	16b-JJ	16dddJJ	.	.	.	.	.	.	.	.	.	.	.	.	.	.	.	.	.	.	.	.
*	*	*	*	*Xtremolo	*Xtremolo	*	*	*	*	*	*	*	*	*	*	*	*	*	*	*	*	*	*	*	*
8DJ	4 2	.	16f#LL	(<16aLL	16ddLL	.	16F#LL	.	16aLL	.	.	.	.	.	.	8ddJ	.	.	8DJ	.	8gJ	16ff#LL	16aaLL	16ff#LL	.
.	.	.	16eJJ	16gJJ)	16ddJJ	.	16EJJ	.	16gJJ	.	.	.	.	.	.	.	.	.	.	.	.	16eeJJ	16ggJJ	16eeJJ	.
!LO:LB:g=original	!	!	!LO:LB:g=original	!LO:LB:g=original	!	!	!	!	!	!	!	!	!	!	!	!	!	!	!	!	!	!	!	!	!
=26	=26	=26	=26	=26	=26	=26	=26	=26	=26	=26	=26	=26	=26	=26	=26	=26	=26	=26	=26	=26	=26	=26	=26	=26	=26
4D	#	.	[2.d	(<2.f#X	4.dd	.	4D	4d	4f#X	4dd	-cem	.	2.r	[4.D	.	4.dd	4.dd	4.dd	4.D	.	4.f#X	4.dd	4.ff#X	4.dd	.
8r	.	.	.	.	.	.	8r	8r	8r	8r	.	.	.	.	.	.	.	.	.	.	.	.	.	.	.
!LO:TX:a:t=Violoncelli	!	!	!	!	!	!	!	!	!	!	!	!	!	!	!	!	!	!	!	!	!	!	!	!	!
(>4.cn	.	.	.	.	(>8ddL	.	4r	4r	4r	4r	.	.	.	4D]	.	4dd	4dd	4dd	4D	.	4f#	4dd	4ff#	4dd	.
.	.	.	.	.	8aa	.	.	.	.	.	.	.	.	.	.	.	.	.	.	.	.	.	.	.	.
!	!	!	!	!	!	!	!	!	!	!	!	!	!	!LO:LB:g=original	!	!	!	!	!	!	!	!	!	!	!
*	*	*	*	*	*	*	*	*	*	*	*	*	*	*	*	*	*	*	*	*	*	*	*v	*v	*
.	.	.	.	.	8ffJ)	.	8r	8r	8r	8r	.	.	.	8r	.	8r	8r	8r	8r	.	8r	8r	8r	.
!	!	!	!	!	!LO:LB:g=original	!	!	!	!	!	!	!	!	!	!	!	!	!	!LO:LB:g=original	!	!	!	!LO:LB:G=original	!LO:LB:G=original
=27	=27	=27	=27	=27	=27	=27	=27	=27	=27	=27	=27	=27	=27	=27	=27	=27	=27	=27	=27	=27	=27	=27	=27	=27
4.B	.	.	2.d]	4.g)	(>8ddL	.	2.r	2.r	2.r	2.r	.	.	2.r	2.r	.	2.r	2.r	2.r	2.r	.	2.r	2.r	2.r	.
.	.	.	.	.	8bb	.	.	.	.	.	.	.	.	.	.	.	.	.	.	.	.	.	.	.
.	.	.	.	.	8ggJ	.	.	.	.	.	.	.	.	.	.	.	.	.	.	.	.	.	.	.
4.F#X)	.	.	.	4.a	8ddL	.	.	.	.	.	.	.	.	.	.	.	.	.	.	.	.	.	.	.
.	.	.	.	.	8ddd	.	.	.	.	.	.	.	.	.	.	.	.	.	.	.	.	.	.	.
.	.	.	.	.	8cccJ)	.	.	.	.	.	.	.	.	.	.	.	.	.	.	.	.	.	.	.
=28	=28	=28	=28	=28	=28	=28	=28	=28	=28	=28	=28	=28	=28	=28	=28	=28	=28	=28	=28	=28	=28	=28	=28	=28
!	!	!	!	!	!	!	!	!	!	!LO:TX:a:t=dol	!	!	!	!	!	!	!	!	!	!	!	!	!	!
(>8GL	.	.	2.d	4.g	(>4.bb	.	2.r	2.r	4.g	(>4.b	Do-	.	2.r	2.r	.	2.r	2.r	2.r	2.r	.	2.r	2.r	2.r	.
8F#X	.	.	.	.	.	.	.	.	.	.	.	.	.	.	.	.	.	.	.	.	.	.	.	.
8GJ	.	.	.	.	.	.	.	.	.	.	.	.	.	.	.	.	.	.	.	.	.	.	.	.
4.D)	.	.	.	8gL	8bbL	.	.	.	8gL	8bL	.	.	.	.	.	.	.	.	.	.	.	.	.	.
.	.	.	.	8f#X	8aa	.	.	.	8f#X	8a	.	.	.	.	.	.	.	.	.	.	.	.	.	.
.	.	.	.	8gJ	8bbJ)	.	.	.	8gJ	8bJ)	.	.	.	.	.	.	.	.	.	.	.	.	.	.
=29	=29	=29	=29	=29	=29	=29	=29	=29	=29	=29	=29	=29	=29	=29	=29	=29	=29	=29	=29	=29	=29	=29	=29	=29
(>8F#XL	.	.	2.d	4.a	(>4.ccc	.	2.r	2.r	4.a	4.cc	-na	.	2.r	2.r	.	2.r	2.r	2.r	2.r	.	2.r	2.r	2.r	.
8E#X	.	.	.	.	.	.	.	.	.	.	.	.	.	.	.	.	.	.	.	.	.	.	.	.
8F#J	.	.	.	.	.	.	.	.	.	.	.	.	.	.	.	.	.	.	.	.	.	.	.	.
4.D)	.	.	.	8aL	8cccL	.	.	.	8aL	(>8ccL	no-	.	.	.	.	.	.	.	.	.	.	.	.	.
.	.	.	.	8g	8bb	.	.	.	8g	8b	.	.	.	.	.	.	.	.	.	.	.	.	.	.
.	.	.	.	8aJ	8cccJ)	.	.	.	8aJ	8ccJ)	.	.	.	.	.	.	.	.	.	.	.	.	.	.
=30	=30	=30	=30	=30	=30	=30	=30	=30	=30	=30	=30	=30	=30	=30	=30	=30	=30	=30	=30	=30	=30	=30	=30	=30
8GL	.	.	2.d	4.b	(>4.ddd	.	2.r	2.r	4.b	4.dd	-bis	.	2.r	2.r	.	2.r	2.r	2.r	2.r	.	2.r	2.r	2.r	.
8F#X	.	.	.	.	.	.	.	.	.	.	.	.	.	.	.	.	.	.	.	.	.	.	.	.
8GJ	.	.	.	.	.	.	.	.	.	.	.	.	.	.	.	.	.	.	.	.	.	.	.	.
4.D	.	.	.	8bL	8dddL	.	.	.	8bL	8ddL	pa-	.	.	.	.	.	.	.	.	.	.	.	.	.
.	.	.	.	8a	8ccc	.	.	.	8a	8cc	.	.	.	.	.	.	.	.	.	.	.	.	.	.
.	.	.	.	8gJ	8bbJ)	.	.	.	8gJ	8bJ	.	.	.	.	.	.	.	.	.	.	.	.	.	.
=31	=31	=31	=31	=31	=31	=31	=31	=31	=31	=31	=31	=31	=31	=31	=31	=31	=31	=31	=31	=31	=31	=31	=31	=31
(>8cL	.	.	2.d	4.f#X	(>4.aa	.	2.r	2.r	4.f#X	4.a	-cem	.	2.r	2.r	.	2.r	2.r	2.r	2.r	.	2.r	2.r	2.r	.
8B	.	.	.	.	.	.	.	.	.	.	.	.	.	.	.	.	.	.	.	.	.	.	.	.
8cJ	.	.	.	.	.	.	.	.	.	.	.	.	.	.	.	.	.	.	.	.	.	.	.	.
4.D)	.	.	.	(<8f#L	8aaL	.	.	.	8f#L	8aL	pa-	.	.	.	.	.	.	.	.	.	.	.	.	.
.	.	.	.	8g	8bb	.	.	.	8g	8b	.	.	.	.	.	.	.	.	.	.	.	.	.	.
.	.	.	.	8aJ)	8cccJ)	.	.	.	8aJ	8ccJ	.	.	.	.	.	.	.	.	.	.	.	.	.	.
!LO:LB:g=original	!	!	!	!	!	!	!	!	!LO:LB:g=original	!	!	!	!	!	!	!	!	!	!	!	!	!	!	!
=32	=32	=32	=32	=32	=32	=32	=32	=32	=32	=32	=32	=32	=32	=32	=32	=32	=32	=32	=32	=32	=32	=32	=32	=32
4.G	.	.	4d	8gL	(>8bbL	.	2.r	2.r	8gL	8bL	.	.	2.r	2.r	.	2.r	2.r	2.r	2.r	.	2.r	2.r	2.r	.
.	.	.	.	8a	8ccc	.	.	.	8a	8cc	.	.	.	.	.	.	.	.	.	.	.	.	.	.
.	.	.	8r	8bJ	8dddJ	.	.	.	8bJ	8ddJ	.	.	.	.	.	.	.	.	.	.	.	.	.	.
4.E	.	.	4.e	8bL	8dddL	.	.	.	8bL	8ddL	.	.	.	.	.	.	.	.	.	.	.	.	.	.
.	.	.	.	8a	8ccc	.	.	.	8a	8cc	.	.	.	.	.	.	.	.	.	.	.	.	.	.
.	.	.	.	8g#XJ	8bbJ)	.	.	.	8g#XJ	8bJ	.	.	.	.	.	.	.	.	.	.	.	.	.	.
!	!	!	!	!	!	!	!	!	!	!LO:LB:g=original	!	!	!	!	!	!	!	!	!	!	!	!	!	!
=33	=33	=33	=33	=33	=33	=33	=33	=33	=33	=33	=33	=33	=33	=33	=33	=33	=33	=33	=33	=33	=33	=33	=33	=33
4.A	.	.	4.a	8aL/	(>8cccL	.	2.r	2.r	8aL	8ccL	.	.	2.r	2.r	.	2.r	2.r	2.r	2.r	.	2.r	2.r	2.r	.
.	.	.	.	8b	8ddd	.	.	.	8b	8dd	.	.	.	.	.	.	.	.	.	.	.	.	.	.
.	.	.	.	8ccJ	8eeeJ	.	.	.	8ccJ	8eeJ	.	.	.	.	.	.	.	.	.	.	.	.	.	.
4.F#X	.	.	4.f#X	8ccL/	8eeeL	.	.	.	8ccL	8eeL	.	.	.	.	.	.	.	.	.	.	.	.	.	.
.	.	.	.	8b	8ddd	.	.	.	8b	8dd	.	.	.	.	.	.	.	.	.	.	.	.	.	.
.	.	.	.	8aJ	8cccJ)	.	.	.	8aJ	8ccJ	.	.	.	.	.	.	.	.	.	.	.	.	.	.
=34	=34	=34	=34	=34	=34	=34	=34	=34	=34	=34	=34	=34	=34	=34	=34	=34	=34	=34	=34	=34	=34	=34	=34	=34
4G	.	.	4g	4g	8bbL	.	4r	4r	4g	4b	.	.	2.r	2.r	.	2.r	4r	4r	2.r	.	4r	4r	2.r	.
.	.	.	.	.	8gg	.	.	.	.	.	.	.	.	.	.	.	.	.	.	.	.	.	.	.
8F#X	6	.	8f#X	8a	8dddJ	.	8F#X	8r	8a	8dd	.	.	.	.	.	.	8dd	8dd	.	.	8f#X	8dd	.	.
4.E	7	.	4.e	4.g	8dddL	.	4.E	4r	4.g	8ddL	.	.	.	.	.	.	4.ee	4.ee	.	.	4.g	8ddL	.	.
.	.	.	.	.	16ccc#XL	.	.	.	.	16cc#XL	.	.	.	.	.	.	.	.	.	.	.	16cc#XL	.	.
.	.	.	.	.	16bbJ	.	.	.	.	16bJJ	.	.	.	.	.	.	.	.	.	.	.	16bJ	.	.
.	#6	.	.	.	8ccc#J	.	.	8A	.	8cc#	.	.	.	.	.	.	.	.	.	.	.	8cc#J	.	.
!	!	!	!LO:LB:g=original	!LO:LB:g=original	!	!	!	!	!	!	!	!	!	!	!	!	!	!	!	!	!	!	!	!
=35	=35	=35	=35	=35	=35	=35	=35	=35	=35	=35	=35	=35	=35	=35	=35	=35	=35	=35	=35	=35	=35	=35	=35	=35
8DL	#	.	8dL	4.f#X	(>4.ddd	.	8DL	(>4.d	4.f#X	4dd	-cem	.	2.r	2.r	.	2.r	4dd	4dd	2.r	.	4f#X	4dd	2.r	.
8A	.	.	8a	.	.	.	8A	.	.	.	.	.	.	.	.	.	.	.	.	.	.	.	.	.
8F#XJ	.	.	8f#XJ	.	.	.	8F#XJ	.	.	8r	.	.	.	.	.	.	8r	8r	.	.	8r	8r	.	.
8DL	.	.	8dL	(<8f#L	8dddL	.	8DL	8dL	8f#L	4r	.	.	.	.	.	.	4r	4r	.	.	4r	4r	.	.
8E	.	.	8e	8g	8ccc#X	.	8E	8c#X	8g	.	.	.	.	.	.	.	.	.	.	.	.	.	.	.
8F#J	.	.	8f#J	8aJ)	8cccnJ)	.	8F#J	8cnJ)	8aJ	8r	.	.	.	.	.	.	8r	8r	.	.	8r	8r	.	.
!	!	!	!	!	!	!	!	!	!	!	!	!	!	!	!	!	!	!	!	!	!	!	!	!
=36	=36	=36	=36	=36	=36	=36	=36	=36	=36	=36	=36	=36	=36	=36	=36	=36	=36	=36	=36	=36	=36	=36	=36	=36
8GL	.	.	2.d	4.g	[4.bb	.	8GL	4B	4.g	4.b	Do-	.	2.r	2.r	.	2.r	2.r	2.r	2.r	.	2.r	2.r	2.r	.
8F#X	.	.	.	.	.	.	8F#X	.	.	.	.	.	.	.	.	.	.	.	.	.	.	.	.	.
8GJ	.	.	.	.	.	.	8GJ	8r	.	.	.	.	.	.	.	.	.	.	.	.	.	.	.	.
4D	.	.	.	8gL	8bbL]	.	4D	4r	8gL	8bL	.	.	.	.	.	.	.	.	.	.	.	.	.	.
.	.	.	.	8f#X	8aa	.	.	.	8f#X	8a	.	.	.	.	.	.	.	.	.	.	.	.	.	.
8r	.	.	.	8gJ	8bbJ	.	8r	8r	8gJ	8bJ	.	.	.	.	.	.	.	.	.	.	.	.	.	.
!	!	!	!	!	!	!	!LO:LB:g=original	!	!	!	!	!	!	!	!	!	!	!	!	!	!	!	!	!
=37	=37	=37	=37	=37	=37	=37	=37	=37	=37	=37	=37	=37	=37	=37	=37	=37	=37	=37	=37	=37	=37	=37	=37	=37
8F#XL	.	.	2.d	4.a	[4.ccc	.	2.r	2.r	4.a	4.cc	-na	.	2.r	2.r	.	2.r	2.r	2.r	2.r	.	2.r	2.r	2.r	.
8E#X	.	.	.	.	.	.	.	.	.	.	.	.	.	.	.	.	.	.	.	.	.	.	.	.
8F#J	.	.	.	.	.	.	.	.	.	.	.	.	.	.	.	.	.	.	.	.	.	.	.	.
4.D	.	.	.	8aL	8cccL]	.	.	.	8aL	8ccL	no-	.	.	.	.	.	.	.	.	.	.	.	.	.
.	.	.	.	8g	8bb	.	.	.	8g	8b	.	.	.	.	.	.	.	.	.	.	.	.	.	.
.	.	.	.	8aJ	8cccJ	.	.	.	8aJ	8ccJ	.	.	.	.	.	.	.	.	.	.	.	.	.	.
!	!	!	!	!	!	!	!	!LO:LB:g=original	!	!	!	!	!	!	!	!	!	!	!	!	!	!	!	!
=38	=38	=38	=38	=38	=38	=38	=38	=38	=38	=38	=38	=38	=38	=38	=38	=38	=38	=38	=38	=38	=38	=38	=38	=38
8GL	.	.	2.d	4.b/	[4.ddd	.	8GL	4r	4.b	(>4.dd	-bis	.	2.r	2.r	.	2.r	2.r	2.r	2.r	.	2.r	2.r	2.r	.
8F#X	.	.	.	.	.	.	8F#X	.	.	.	.	.	.	.	.	.	.	.	.	.	.	.	.	.
8GJ	.	.	.	.	.	.	8GJ	8r	.	.	.	.	.	.	.	.	.	.	.	.	.	.	.	.
4.D	.	.	.	8bL	8dddL]	.	4D	8GL	8bL	8ddL	.	.	.	.	.	.	.	.	.	.	.	.	.	.
.	.	.	.	8a	8ccc	.	.	8A	8a	8cc	.	.	.	.	.	.	.	.	.	.	.	.	.	.
.	.	.	.	8gJ	8bbJ	.	8r	8BJ	8gJ	8bJ)	.	.	.	.	.	.	.	.	.	.	.	.	.	.
!LO:LB:g=original	!	!	!	!	!	!	!	!	!	!	!	!	!	!	!	!	!	!	!	!	!	!	!	!
=39	=39	=39	=39	=39	=39	=39	=39	=39	=39	=39	=39	=39	=39	=39	=39	=39	=39	=39	=39	=39	=39	=39	=39	=39
8cL	.	.	2.d	4.f#X	[4.aa	.	2.r	8cL	4.f#X	4.a	pa-	.	2.r	2.r	.	2.r	2.r	2.r	2.r	.	2.r	2.r	2.r	.
8B	.	.	.	.	.	.	.	8B	.	.	.	.	.	.	.	.	.	.	.	.	.	.	.	.
8cJ	.	.	.	.	.	.	.	8cJ	.	.	.	.	.	.	.	.	.	.	.	.	.	.	.	.
4.D	.	.	.	8f#L	8aaL]	.	.	4D	8f#L	8aL	-cem	.	.	.	.	.	.	.	.	.	.	.	.	.
.	.	.	.	8g	8bb	.	.	.	8g	8b	.	.	.	.	.	.	.	.	.	.	.	.	.	.
.	.	.	.	8aJ	8cccJ	.	.	8r	8aJ	8ccJ	.	.	.	.	.	.	.	.	.	.	.	.	.	.
!	!	!	!	!	!	!	!	!	!LO:LB:g=original	!LO:LB:g=original	!	!	!	!	!	!	!	!	!	!	!	!	!	!
=40	=40	=40	=40	=40	=40	=40	=40	=40	=40	=40	=40	=40	=40	=40	=40	=40	=40	=40	=40	=40	=40	=40	=40	=40
4.G	.	.	4d	(<8gL	(>8bbL	.	4r	2.r	8gL	(>8bL	pa-	.	2.r	2.r	.	2.r	2.r	2.r	2.r	.	2.r	2.r	2.r	.
.	.	.	.	8a	8ccc	.	.	.	8a	8cc	.	.	.	.	.	.	.	.	.	.	.	.	.	.
.	.	.	8r	8bJ	8dddJ)	.	8r	.	8bJ	8ddJ	.	.	.	.	.	.	.	.	.	.	.	.	.	.
4.E	.	.	4.e	8bL	8dddL	.	4.E	.	8bL	8ddL	.	.	.	.	.	.	.	.	.	.	.	.	.	.
.	.	.	.	8a	8ccc	.	.	.	8a	8cc	.	.	.	.	.	.	.	.	.	.	.	.	.	.
.	.	.	.	8g#XJ)	8bbJ	.	.	.	8g#XJ	8bJ	.	.	.	.	.	.	.	.	.	.	.	.	.	.
=41	=41	=41	=41	=41	=41	=41	=41	=41	=41	=41	=41	=41	=41	=41	=41	=41	=41	=41	=41	=41	=41	=41	=41	=41
4.A	.	.	4.a	8aL/	(>8cccL	.	4.A	2.r	8aL	8ccL	.	.	2.r	2.r	.	2.r	2.r	2.r	2.r	.	2.r	2.r	2.r	.
.	.	.	.	8b	8ddd	.	.	.	8b	8dd	.	.	.	.	.	.	.	.	.	.	.	.	.	.
.	.	.	.	8ccJ	8eeeJ)	.	.	.	8ccJ	8eeJ	.	.	.	.	.	.	.	.	.	.	.	.	.	.
4.F#X	.	.	4.f#X	8ccL/	8eeeL	.	4.F#X	.	8ccL	8eeL	.	.	.	.	.	.	.	.	.	.	.	.	.	.
.	.	.	.	8b	8ddd	.	.	.	8b	8dd	.	.	.	.	.	.	.	.	.	.	.	.	.	.
.	.	.	.	8aJ	8cccJ	.	.	.	8aJ	8ccJ)	.	.	.	.	.	.	.	.	.	.	.	.	.	.
=42	=42	=42	=42	=42	=42	=42	=42	=42	=42	=42	=42	=42	=42	=42	=42	=42	=42	=42	=42	=42	=42	=42	=42	=42
4.G	.	.	4.g	8gL	(>8bbL	.	4.G	2.r	8gL	8bL	.	.	2.r	2.r	.	2.r	2.r	2.r	2.r	.	2.r	2.r	2.r	.
.	.	.	.	8a	8ccc	.	.	.	8a	8cc	.	.	.	.	.	.	.	.	.	.	.	.	.	.
.	.	.	.	8bJ	8dddJ	.	.	.	8bJ	8ddJ	.	.	.	.	.	.	.	.	.	.	.	.	.	.
4.C	.	.	4.c	8bL/	8dddL	.	4.C	.	8bL	8ddL	.	.	.	.	.	.	.	.	.	.	.	.	.	.
.	.	.	.	8cc	8eee	.	.	.	8cc	8ee	.	.	.	.	.	.	.	.	.	.	.	.	.	.
.	.	.	.	8aJ	8cccJ)	.	.	.	8aJ	8ccJ	.	.	.	.	.	.	.	.	.	.	.	.	.	.
!	!	!	!LO:LB:g=original	!LO:LB:g=original	!LO:LB:g=original	!	!	!	!	!	!	!	!	!	!	!	!LO:LB:g=original	!	!	!	!	!LO:LB:g=ooriginal	!	!
=43	=43	=43	=43	=43	=43	=43	=43	=43	=43	=43	=43	=43	=43	=43	=43	=43	=43	=43	=43	=43	=43	=43	=43	=43
4.D	.	.	4.d	8gL	8bbL	.	4.D	4r	8gL	8bL	.	.	2.r	2.r	.	2.r	4r	4r	2.r	.	4r	4r	2.r	.
.	.	.	.	8a	8ccc	.	.	.	8a	8cc	.	.	.	.	.	.	.	.	.	.	.	.	.	.
.	.	.	.	8f#XJ	8aaJ	.	.	8r	8f#XJ	8aJ	.	.	.	.	.	.	8r	8r	.	.	8r	8r	.	.
4GG	#7 2	.	(>8BL	8gL	8ggL	.	4G	4r	8gL	4g	-cem	.	.	.	.	.	4.G	4.g	.	.	4r	4r	.	.
.	.	.	8c	8a	8ff#X	.	.	.	8a	.	.	.	.	.	.	.	.	.	.	.	.	.	.	.
8GG	7n 3	.	8dJ)	8bJ	8ffnJ	.	8G	8d	8bJ	8ffn	.	.	.	.	.	.	.	.	.	.	8dd	8ffn	.	.
=44	=44	=44	=44	=44	=44	=44	=44	=44	=44	=44	=44	=44	=44	=44	=44	=44	=44	=44	=44	=44	=44	=44	=44	=44
8GGL	6 4	.	4.e	2.cc	(>8eeL	.	2.G	4.e	4.cc	4.ee	pa-	.	2.r	2.r	.	2.r	2.G	2.g	2.r	.	2.cc	4.ee	2.r	.
8GG	.	.	.	.	8ccc	.	.	.	.	.	.	.	.	.	.	.	.	.	.	.	.	.	.	.
8GGJ	.	.	.	.	8aaJ	.	.	.	.	.	.	.	.	.	.	.	.	.	.	.	.	.	.	.
8GGL	#7 2	.	4.A	.	8ff#XL	.	.	4.f#X	4.a	4.cc	.	.	.	.	.	.	.	.	.	.	.	4.ff#X	.	.
8GG	.	.	.	.	8ee	.	.	.	.	.	.	.	.	.	.	.	.	.	.	.	.	.	.	.
8GGJ	.	.	.	.	8ff#J)	.	.	.	.	.	.	.	.	.	.	.	.	.	.	.	.	.	.	.
!	!	!	!	!	!	!	!	!	!	!	!	!	!	!	!	!	!	!LO:LB:g=original	!	!	!	!	!	!
=45	=45	=45	=45	=45	=45	=45	=45	=45	=45	=45	=45	=45	=45	=45	=45	=45	=45	=45	=45	=45	=45	=45	=45	=45
8GGL	.	.	4.d	4.b	4.gg	.	8GL	4.g	4.g	4.b	-cem	.	2.r	2.r	.	2.r	2.G	2.g	2.r	.	4.b	4.gg	2.r	.
8D	.	.	.	.	.	.	8d	.	.	.	.	.	.	.	.	.	.	.	.	.	.	.	.	.
8BBJ	.	.	.	.	.	.	8BJ	.	.	.	.	.	.	.	.	.	.	.	.	.	.	.	.	.
8GGL	#7 2	.	8BL	8gL	(>8ggL	.	4G	8gL	8gL	8bL	pa-	.	.	.	.	.	.	.	.	.	8bL	8ggL	.	.
8GG	.	.	8c	8a	8ff#X	.	.	8f#X	8a	8cc	.	.	.	.	.	.	.	.	.	.	8cc	8ff#X	.	.
8GGJ	7n 3	.	8dJ	8bJ	8ffnJ	.	8G	8fnJ	8bJ	8ddJ	.	.	.	.	.	.	.	.	.	.	8ddJ	8ffnJ	.	.
!	!	!	!	!	!	!	!LO:LB:g=original	!	!	!	!	!	!	!	!	!	!	!	!	!	!LO:LBLg=original	!	!	!
=46	=46	=46	=46	=46	=46	=46	=46	=46	=46	=46	=46	=46	=46	=46	=46	=46	=46	=46	=46	=46	=46	=46	=46	=46
8GGL	6 4	.	4.e	2.cc	8eeL	.	2.G	4.e	4.cc	4.ee	-cem	.	2.r	2.r	.	2.r	2.G	2.g	2.r	.	2.cc	4.ee	2.r	.
8GG	.	.	.	.	8ccc	.	.	.	.	.	.	.	.	.	.	.	.	.	.	.	.	.	.	.
8GGJ	.	.	.	.	8aaJ	.	.	.	.	.	.	.	.	.	.	.	.	.	.	.	.	.	.	.
8GGL	#7 2	.	4.A	.	8ff#XL	.	.	4.f#X	4.a	4.cc	pa-	.	.	.	.	.	.	.	.	.	.	4.ff#X	.	.
8GG	.	.	.	.	8ee	.	.	.	.	.	.	.	.	.	.	.	.	.	.	.	.	.	.	.
8GGJ	.	.	.	.	8ff#J	.	.	.	.	.	.	.	.	.	.	.	.	.	.	.	.	.	.	.
!	!	!	!	!	!	!	!	!LO:LB:g=original	!LO:LBLg=original	!	!	!	!	!	!	!	!	!	!	!	!	!	!	!
=47	=47	=47	=47	=47	=47	=47	=47	=47	=47	=47	=47	=47	=47	=47	=47	=47	=47	=47	=47	=47	=47	=47	=47	=47
*	*	*	*	*	*	*	*	*	*	*	*	*	*	*	*	*	*	*	*^	*	*	*	*^	*
8GGL	.	.	4.d	4.b	4.gg	.	8GL	4.g	4.g	4.b	.	.	16GGLL	4.GG	.	2.G 2.g	2.G	2.g	4.g	8GGL/	.	4.b	4.gg	4.gg	4.b	.
.	.	.	.	.	.	.	.	.	.	.	.	.	16GG	.	.	.	.	.	.	.	.	.	.	.	.	.
8D	.	.	.	.	.	.	8d	.	.	.	.	.	16GG	.	.	.	.	.	.	8D	.	.	.	.	.	.
.	.	.	.	.	.	.	.	.	.	.	.	.	16GG	.	.	.	.	.	.	.	.	.	.	.	.	.
8BBJ	.	.	.	.	.	.	8BJ	.	.	.	.	.	16GG	.	.	.	.	.	.	8BBJ	.	.	.	.	.	.
.	.	.	.	.	.	.	.	.	.	.	.	.	16GG	.	.	.	.	.	.	.	.	.	.	.	.	.
8GGL	.	.	8BL/	8gL	8ggL)	.	4G	8gL	8gL	8bL	-cem	.	16GG	4.GG	.	.	.	.	8gL	8GGL/	.	8bL	8ggL	8ggL	8bL	.
.	.	.	.	.	.	.	.	.	.	.	.	.	16GG	.	.	.	.	.	.	.	.	.	.	.	.	.
8GG	.	.	8c	8a	8ff#X	.	.	8f#X	8a	8cc	.	.	16GG	.	.	.	.	.	8f#X	8GG	.	8cc	8ff#X	8aa	8cc	.
.	.	.	.	.	.	.	.	.	.	.	.	.	16GG	.	.	.	.	.	.	.	.	.	.	.	.	.
8GGJ	.	.	8dJ	8bJ	8ffnJ	.	8G	8fnJ	8bJ	8ddJ	.	.	16GG	.	.	.	.	.	8fnJ	8GGJ	.	8ddJ	8ffnJ	8bbJ	8ddJ	.
.	.	.	.	.	.	.	.	.	.	.	.	.	16GGJJ	.	.	.	.	.	.	.	.	.	.	.	.	.
!LO:LB:g=original	!	!	!	!	!	!	!	!	!	!LO:LB:g=original	!	!	!	!	!	!	!	!	!	!	!	!	!	!	!	!
=48	=48	=48	=48	=48	=48	=48	=48	=48	=48	=48	=48	=48	=48	=48	=48	=48	=48	=48	=48	=48	=48	=48	=48	=48	=48	=48
8GGL	6 4	.	4.e	2.cc	8eeL	.	2.G	4.e	4.cc	4.ee	pa-	.	16GGLL	2.GG	.	2.G 2.g	2.G	2.g	4.e	8GGL/	.	2.cc	4.ee	2.ccc	4.ee	.
.	.	.	.	.	.	.	.	.	.	.	.	.	16GG	.	.	.	.	.	.	.	.	.	.	.	.	.
8GG	.	.	.	.	8ccc	.	.	.	.	.	.	.	16GG	.	.	.	.	.	.	8GG	.	.	.	.	.	.
.	.	.	.	.	.	.	.	.	.	.	.	.	16GG	.	.	.	.	.	.	.	.	.	.	.	.	.
8GGJ	.	.	.	.	8aaJ	.	.	.	.	.	.	.	16GG	.	.	.	.	.	.	8GG	.	.	.	.	.	.
.	.	.	.	.	.	.	.	.	.	.	.	.	16GG	.	.	.	.	.	.	.	.	.	.	.	.	.
8GGL	#7 2	.	4.A	.	8ff#XL	.	.	4.c	4.a	4.ff#X	.	.	16GG	.	.	.	.	.	4.c	8GG	.	.	4.ff#X	.	4.ff#X	.
.	.	.	.	.	.	.	.	.	.	.	.	.	16GG	.	.	.	.	.	.	.	.	.	.	.	.	.
8GG	.	.	.	.	8ee	.	.	.	.	.	.	.	16GG	.	.	.	.	.	.	8GG	.	.	.	.	.	.
.	.	.	.	.	.	.	.	.	.	.	.	.	16GG	.	.	.	.	.	.	.	.	.	.	.	.	.
8GGJ	.	.	.	.	8ff#J	.	.	.	.	.	.	.	16GG	.	.	.	.	.	.	8GGJ	.	.	.	.	.	.
.	.	.	.	.	.	.	.	.	.	.	.	.	16GGJJ	.	.	.	.	.	.	.	.	.	.	.	.	.
=49	=49	=49	=49	=49	=49	=49	=49	=49	=49	=49	=49	=49	=49	=49	=49	=49	=49	=49	=49	=49	=49	=49	=49	=49	=49	=49
8GGL/	.	.	8GL	8bL	[4.gg	.	4G	4B	4g	4gg	-cem	.	16GGLL	4.GG	.	4.G 4.g	4.G	4.g	4.B	4.GG/	.	4.b	[4.gg	4.bb	4.gg	.
.	.	.	.	.	.	.	.	.	.	.	.	.	16GG	.	.	.	.	.	.	.	.	.	.	.	.	.
8G\	.	.	8G	8d 8b	.	.	.	.	.	.	.	.	16GG	.	.	.	.	.	.	.	.	.	.	.	.	.
.	.	.	.	.	.	.	.	.	.	.	.	.	16GG	.	.	.	.	.	.	.	.	.	.	.	.	.
8GJ	.	.	8GJ	8dJ 8b	.	.	8r	8r	8r	8r	.	.	16GG	.	.	.	.	.	.	.	.	.	.	.	.	.
.	.	.	.	.	.	.	.	.	.	.	.	.	16GGJJ	.	.	.	.	.	.	.	.	.	.	.	.	.
4G	.	.	4G	4d 4b	8ggL]	.	4r	4r	4r	4r	.	.	4GG	4GG	.	4G 4g	4G	4g	4.B	4GG/	.	4b	4gg]	4bb	4gg	.
.	.	.	.	.	(>8dd	.	.	.	.	.	.	.	.	.	.	.	.	.	.	.	.	.	.	.	.	.
*	*	*	*	*	*	*	*	*	*	*	*	*	*	*	*	*	*	*	*	*	*	*	*	*v	*v	*
8r	.	.	8r	8r	8eeJ	.	8r	8r	8r	8r	.	.	8r	8r	.	8r	8r	8r	.	8r	.	8r	8r	8r	.
!	!	!	!	!	!LO:LB:g=original	!	!	!	!	!	!	!	!	!	!	!	!	!	!	!	!	!	!	!	!
*	*	*	*	*	*	*	*	*	*	*	*	*	*	*	*	*	*	*	*v	*v	*	*	*	*	*
=50	=50	=50	=50	=50	=50	=50	=50	=50	=50	=50	=50	=50	=50	=50	=50	=50	=50	=50	=50	=50	=50	=50	=50	=50
2.r	.	.	2.r	2.r	8ffnL)	fp	2.r	2.r	2.r	2.r	.	.	2.r	2.r	.	2.r	2.r	2.r	2.r	.	2.r	2.r	2.r	.
.	.	.	.	.	(>8a	.	.	.	.	.	.	.	.	.	.	.	.	.	.	.	.	.	.	.
.	.	.	.	.	8bJ	.	.	.	.	.	.	.	.	.	.	.	.	.	.	.	.	.	.	.
.	.	.	.	.	8ccL)	.	.	.	.	.	.	.	.	.	.	.	.	.	.	.	.	.	.	.
.	.	.	.	.	8e	.	.	.	.	.	.	.	.	.	.	.	.	.	.	.	.	.	.	.
.	.	.	.	.	8fJ	.	.	.	.	.	.	.	.	.	.	.	.	.	.	.	.	.	.	.
=51	=51	=51	=51	=51	=51	=51	=51	=51	=51	=51	=51	=51	=51	=51	=51	=51	=51	=51	=51	=51	=51	=51	=51	=51
2.r	.	.	2.r	2.r	[4.g	.	2.r	2.r	2.r	2.r	.	.	2.r	2.r	.	2.r	2.r	2.r	2.r	.	2.r	2.r	2.r	.
.	.	.	.	.	8gL]	.	.	.	.	.	.	.	.	.	.	.	.	.	.	.	.	.	.	.
.	.	.	.	.	8f	.	.	.	.	.	.	.	.	.	.	.	.	.	.	.	.	.	.	.
.	.	.	.	.	8dJ	.	.	.	.	.	.	.	.	.	.	.	.	.	.	.	.	.	.	.
!	!	!	!LO:LB:g=original	!	!	!	!	!	!	!	!	!	!	!	!	!	!	!	!	!	!	!	!	!
=52	=52	=52	=52	=52	=52	=52	=52	=52	=52	=52	=52	=52	=52	=52	=52	=52	=52	=52	=52	=52	=52	=52	=52	=52
*	*	*	*	*	*	*	*	*	*	*^	*	*	*	*	*	*	*	*	*	*	*	*	*	*
2.C	.	.	2.c/	4r	4c	.	4.C	4r	8r	8r	4ryy	.	.	2.r	2.r	.	2.r	2.r	2.r	2.r	.	2.r	2.r	2.r	.
.	.	.	.	.	.	.	.	.	8e	8g	.	Do-	.	.	.	.	.	.	.	.	.	.	.	.	.
.	.	.	.	8r	8r	.	.	8r	8e	8g	8ryy	-na	.	.	.	.	.	.	.	.	.	.	.	.	.
!	!	!	!	!LO:LB:g=original	!	!	!	!	!	!	!	!	!	!	!	!	!	!	!	!	!	!	!	!	!
.	.	.	.	4.G 4.e	4.g	.	4.C	8r	4e	4g\	8ryy	nobis	.	.	.	.	.	.	.	.	.	.	.	.	.
.	.	.	.	.	.	.	.	8G	.	.	8g	.	.	.	.	.	.	.	.	.	.	.	.	.	.
.	.	.	.	.	.	.	.	8G	8r	8r	8ryy	.	.	.	.	.	.	.	.	.	.	.	.	.	.
=53	=53	=53	=53	=53	=53	=53	=53	=53	=53	=53	=53	=53	=53	=53	=53	=53	=53	=53	=53	=53	=53	=53	=53	=53	=53
2.C	.	.	2.c/	2.G 2.e	2.cc	.	4.C	4G	8r	8r	4ryy	.	.	2.r	2.r	.	2.r	2.r	2.r	2.r	.	2.r	2.r	2.r	.
.	.	.	.	.	.	.	.	.	8e	8cc	.	Do-	.	.	.	.	.	.	.	.	.	.	.	.	.
.	.	.	.	.	.	.	.	8r	8e	8cc	8ryy	-na	.	.	.	.	.	.	.	.	.	.	.	.	.
.	.	.	.	.	.	.	4.C	8r	4e	4cc\	8ryy	nobis	.	.	.	.	.	.	.	.	.	.	.	.	.
.	.	.	.	.	.	.	.	8G	.	.	8cc	.	.	.	.	.	.	.	.	.	.	.	.	.	.
.	.	.	.	.	.	.	.	8G	8r	8r	8ryy	.	.	.	.	.	.	.	.	.	.	.	.	.	.
*	*	*	*	*	*	*	*	*	*	*v	*v	*	*	*	*	*	*	*	*	*	*	*	*	*	*
=54	=54	=54	=54	=54	=54	=54	=54	=54	=54	=54	=54	=54	=54	=54	=54	=54	=54	=54	=54	=54	=54	=54	=54	=54
8CL	.	.	8cL	4.G 4.e	[4.ee	.	4.C	4G	8r	8r	.	.	2.r	2.r	.	2.r	2.r	2.r	2.r	.	2.r	2.r	2.r	.
8G	.	.	8g	.	.	.	.	.	8g	8ee	Do-	.	.	.	.	.	.	.	.	.	.	.	.	.
8EJ	.	.	8eJ	.	.	.	.	8r	8g	8ee	-na	.	.	.	.	.	.	.	.	.	.	.	.	.
4.C	.	.	4.c/	(<8gL	8eeL]	.	4C	4r	8gL	8eeL	no-	.	.	.	.	.	.	.	.	.	.	.	.	.
.	.	.	.	8a	(>8ff	.	.	.	8a	8ff	.	.	.	.	.	.	.	.	.	.	.	.	.	.
.	.	.	.	8gJ)	8eeJ	.	8r	8r	8gJ	8eeJ	-bis	.	.	.	.	.	.	.	.	.	.	.	.	.
!	!	!	!	!	!	!	!	!LO:LB:g=original	!	!	!	!	!	!	!	!	!	!	!	!	!	!	!	!
=55	=55	=55	=55	=55	=55	=55	=55	=55	=55	=55	=55	=55	=55	=55	=55	=55	=55	=55	=55	=55	=55	=55	=55	=55
8GGL	.	.	8GL	4g	4ee	.	2.r	2.r	(>4g	(>4ee	pa-	.	2.r	2.r	.	2.r	4r	4r	2.r	.	4r	4r	2.r	.
8AA	.	.	8A	.	.	.	.	.	.	.	.	.	.	.	.	.	.	.	.	.	.	.	.	.
8BBJ	.	.	8BJ	8f	8dd)	.	.	.	8f)	8dd)	.	.	.	.	.	.	8r	8r	.	.	8r	8r	.	.
4.C	.	.	4.c/	4.e	8ccL	.	.	.	4e	4cc	-cem	.	.	.	.	.	8r	8r	.	.	8r	8r	.	.
.	.	.	.	.	8g	.	.	.	.	.	.	.	.	.	.	.	8ccL	8eeL	.	.	8gL	8eeL	.	.
.	.	.	.	.	8eeJ	.	.	.	8r	8r	.	.	.	.	.	.	8ccJ	8eeJ	.	.	8gJ	8eeJ	.	.
!	!	!	!	!	!	!	!	!	!LO:LB:g=original	!	!	!	!	!	!	!	!	!	!	!	!	!	!	!
=56	=56	=56	=56	=56	=56	=56	=56	=56	=56	=56	=56	=56	=56	=56	=56	=56	=56	=56	=56	=56	=56	=56	=56	=56
8CL	.	.	8cL	4.G 4.e	4.ee	.	8r	8r	2.r	2.r	.	.	2.r	2.r	.	2.r	4cc	4ee	2.r	.	4g	4ee	2.r	.
8G	.	.	8g	.	.	.	8G	8e	.	.	.	.	.	.	.	.	.	.	.	.	.	.	.	.
8EJ	.	.	8eJ	.	.	.	8G	8e	.	.	.	.	.	.	.	.	8r	8r	.	.	8r	8r	.	.
4.C	.	.	4.c/	(<8gL	8eeL	.	8GL	8eL	.	.	.	.	.	.	.	.	4r	4r	.	.	4r	4r	.	.
.	.	.	.	8a	8ff	.	8A	8f	.	.	.	.	.	.	.	.	.	.	.	.	.	.	.	.
.	.	.	.	8gJ)	8eeJ	.	8GJ	8eJ	.	.	.	.	.	.	.	.	8r	8r	.	.	8r	8r	.	.
!LO:LB:g=original	!	!	!	!	!	!	!LO:LB:g=original	!	!	!LO:LB:g=original	!	!	!	!	!	!	!LO:LB:g=original	!	!	!	!	!LO:LB:g=original	!	!
=57	=57	=57	=57	=57	=57	=57	=57	=57	=57	=57	=57	=57	=57	=57	=57	=57	=57	=57	=57	=57	=57	=57	=57	=57
8GGL	.	.	8GL	4g	4ee	.	4G	(>4e	4r	4r	.	.	2.r	2.r	.	2.r	4r	4r	2.r	.	4r	4r	2.r	.
8AA	.	.	8A	.	.	.	.	.	.	.	.	.	.	.	.	.	.	.	.	.	.	.	.	.
8BBJ	.	.	8BJ	8f	8dd	.	8F	8d)	8r	8r	.	.	.	.	.	.	8r	8r	.	.	8r	8r	.	.
4.C	.	.	4.c/	4.e	8ccL	.	4E	4c	8r	8r	.	.	.	.	.	.	8r	8r	.	.	8r	8r	.	.
.	.	.	.	.	8g	.	.	.	8g	8ee	Do-	.	.	.	.	.	8ccL	8eeL	.	.	8gL	8eeL	.	.
.	3	.	.	.	8eeJ	.	8C	8r	8g	8ee	-na	.	.	.	.	.	8ccJ	8eeJ	.	.	8gJ	8eeJ	.	.
=58	=58	=58	=58	=58	=58	=58	=58	=58	=58	=58	=58	=58	=58	=58	=58	=58	=58	=58	=58	=58	=58	=58	=58	=58
4.BB	6	.	4.B	4G 4g	8eeL	.	4.BB	4r	4g	8eeL	no-	.	2.r	2.r	.	2.r	4.g	4.dd	2.r	.	4g\	8eeL	2.r	.
.	.	.	.	.	8dd	.	.	.	.	8ddJ	.	.	.	.	.	.	.	.	.	.	.	8dd	.	.
.	7	.	.	8dd	8ggJ	.	.	8G	8g	8dd	-bis	.	.	.	.	.	.	.	.	.	8dd	8ggJ	.	.
4.AA	#6	.	4.A	4.cc	8ggL	.	4.AA	4.c	8gL	4.cc	pa-	.	.	.	.	.	4.cc	4.cc	.	.	4.cc	8ggL	.	.
.	.	.	.	.	16ff#XL	.	.	.	16f#XL	.	.	.	.	.	.	.	.	.	.	.	.	16ff#XL	.	.
.	.	.	.	.	16eeJ	.	.	.	16eJ	.	.	.	.	.	.	.	.	.	.	.	.	16eeJ	.	.
.	.	.	.	.	8ff#J	.	.	.	8f#J	.	.	.	.	.	.	.	.	.	.	.	.	8ff#J	.	.
!	!	!	!LO:LB:g=original	!	!LO:LB:g=original	!	!	!	!	!	!	!	!	!	!	!	!	!	!	!	!	!	!	!
=59	=59	=59	=59	=59	=59	=59	=59	=59	=59	=59	=59	=59	=59	=59	=59	=59	=59	=59	=59	=59	=59	=59	=59	=59
8GGL	.	.	8GL	4.b	4.gg	.	4GG	4d	4g	4b	-cem	.	2.r	2.r	.	2.r	4.g	4.dd	2.r	.	4.b	4.gg	2.r	.
8D	.	.	8d	.	.	.	.	.	.	.	.	.	.	.	.	.	.	.	.	.	.	.	.	.
8BBJ	.	.	8BJ	.	.	.	8r	8r	8r	8r	.	.	.	.	.	.	.	.	.	.	.	.	.	.
8.GGL	.	.	8.GL	4b	4gg	.	4r	8r	4r	4r	.	.	.	.	.	.	4g	4dd	.	.	4b	4gg	.	.
.	.	.	.	.	.	.	.	8r	.	.	.	.	.	.	.	.	.	.	.	.	.	.	.	.
16FL	.	.	(>16fL	.	.	.	.	.	.	.	.	.	.	.	.	.	.	.	.	.	.	.	.	.
16E	.	.	16e	8r	8r	.	8r	8r	8r	8r	.	.	.	.	.	.	8r	8r	.	.	8r	8r	.	.
16DJJ	.	.	16dJJ)	.	.	.	.	.	.	.	.	.	.	.	.	.	.	.	.	.	.	.	.	.
!	!	!	!	!LO:LB:g=original	!	!	!	!	!	!	!	!	!	!	!	!	!	!	!	!	!LO:LB:g=original	!	!	!
=60	=60	=60	=60	=60	=60	=60	=60	=60	=60	=60	=60	=60	=60	=60	=60	=60	=60	=60	=60	=60	=60	=60	=60	=60
*	*	*	*	*	*	*	*	*	*	*^	*	*	*	*	*	*	*	*	*	*	*	*	*	*
2.C	.	.	2.c/	2.G 2.e	4r	.	4.C	4r	8r	8r	4ryy	.	.	2.r	2.r	.	2.r	2.r	2.r	2.r	.	2.r	2.r	2.r	.
.	.	.	.	.	.	.	.	.	8e	8g	.	Do-	.	.	.	.	.	.	.	.	.	.	.	.	.
.	.	.	.	.	8r	.	.	8r	8e	8g	8ryy	-na	.	.	.	.	.	.	.	.	.	.	.	.	.
.	.	.	.	.	4.g	.	4.C	8r	4e	4g\	8ryy	nobis	.	.	.	.	.	.	.	.	.	.	.	.	.
.	.	.	.	.	.	.	.	8G	.	.	8g	.	.	.	.	.	.	.	.	.	.	.	.	.	.
.	.	.	.	.	.	.	.	8G	8r	8r	8ryy	.	.	.	.	.	.	.	.	.	.	.	.	.	.
!	!	!	!	!	!	!	!	!LO:LB:g=original	!	!	!	!	!	!	!	!	!	!	!	!	!	!	!	!	!
=61	=61	=61	=61	=61	=61	=61	=61	=61	=61	=61	=61	=61	=61	=61	=61	=61	=61	=61	=61	=61	=61	=61	=61	=61	=61
[2.C	.	.	[2.c/	2.G 2.e	2.cc	.	4.C	4G	8r	8r	4ryy	.	.	2.r	2.r	.	2.r	2.r	2.r	2.r	.	2.r	2.r	2.r	.
.	.	.	.	.	.	.	.	.	8e	8cc	.	Do-	.	.	.	.	.	.	.	.	.	.	.	.	.
.	.	.	.	.	.	.	.	8r	8e	8cc	8ryy	-na	.	.	.	.	.	.	.	.	.	.	.	.	.
.	.	.	.	.	.	.	4.C	8r	4e	4cc\	8ryy	nobis	.	.	.	.	.	.	.	.	.	.	.	.	.
.	.	.	.	.	.	.	.	8G	.	.	8cc	.	.	.	.	.	.	.	.	.	.	.	.	.	.
.	.	.	.	.	.	.	.	8G	8r	8r	8ryy	.	.	.	.	.	.	.	.	.	.	.	.	.	.
*	*	*	*	*	*	*	*	*	*	*v	*v	*	*	*	*	*	*	*	*	*	*	*	*	*	*
=62	=62	=62	=62	=62	=62	=62	=62	=62	=62	=62	=62	=62	=62	=62	=62	=62	=62	=62	=62	=62	=62	=62	=62	=62
8CL]	.	.	8cL]	4.G 4.e	(>4.ee	.	4.C	4G	8r	8r	.	.	2.r	2.r	.	2.r	2.r	2.r	2.r	.	2.r	2.r	2.r	.
8G	.	.	8g	.	.	.	.	.	8g	8ee	Do-	.	.	.	.	.	.	.	.	.	.	.	.	.
8EJ	.	.	8eJ	.	.	.	.	8r	8g	8ee	-na	.	.	.	.	.	.	.	.	.	.	.	.	.
4.C	.	.	4.c/	8gL	8eeL	.	4C	4r	8gL	8eeL	no-	.	.	.	.	.	.	.	.	.	.	.	.	.
.	.	.	.	8a	8ff	.	.	.	8a	8ff	.	.	.	.	.	.	.	.	.	.	.	.	.	.
.	.	.	.	8gJ	8eeJ)	.	8r	8r	8gJ	8eeJ	-bis	.	.	.	.	.	.	.	.	.	.	.	.	.
!	!	!	!	!	!	!	!	!	!	!	!	!	!	!	!	!	!	!LO:LB:g=original	!	!	!	!	!	!
=63	=63	=63	=63	=63	=63	=63	=63	=63	=63	=63	=63	=63	=63	=63	=63	=63	=63	=63	=63	=63	=63	=63	=63	=63
8GGL	.	.	8GL	4g	(>4ee	.	2.r	2.r	4g	(>4ee	pa-	.	2.r	2.r	.	2.r	4r	4r	4r	.	4r	4r	4r	.
8AA	.	.	8A	.	.	.	.	.	.	.	.	.	.	.	.	.	.	.	.	.	.	.	.	.
8BBJ	.	.	8BJ	8f	8dd	.	.	.	8f	8dd)	.	.	.	.	.	.	8r	8r	8r	.	8r	8r	8r	.
4.C	.	.	4.c/	4.e	8ccL)	.	.	.	4e	4cc	-cem	.	.	.	.	.	8r	8r	8r	.	8r	8r	8r	.
.	.	.	.	.	8g	.	.	.	.	.	.	.	.	.	.	.	8ccL	8eeL	8CL 8G	.	8gL	8eeL	8eeL 8ccc	.
.	.	.	.	.	8eeJ	.	.	.	8r	8r	.	.	.	.	.	.	8ccJ	8eeJ	8CJ 8G	.	8gJ	8eeJ	8eeJ 8ccc	.
!LO:LB:g=original	!	!	!	!	!	!	!	!	!	!	!	!	!	!	!	!	!	!	!	!	!	!	!	!
=64	=64	=64	=64	=64	=64	=64	=64	=64	=64	=64	=64	=64	=64	=64	=64	=64	=64	=64	=64	=64	=64	=64	=64	=64
8CL	.	.	8cL	4.G 4.e	(>4.ee	.	8r	8r	2.r	2.r	.	.	2.r	2.r	.	2.r	4cc	4ee	4C 4G	.	4g	4ee	4ee 4ccc	.
8G	.	.	(>8g	.	.	.	8G	8e	.	.	.	.	.	.	.	.	.	.	.	.	.	.	.	.
(>8EJ	.	.	8eJ	.	.	.	8G	8e	.	.	.	.	.	.	.	.	8r	8r	8r	.	8r	8r	8r	.
4.C)	.	.	4.c/)	8gL	8eeL	.	8GL	8eL	.	.	.	.	.	.	.	.	4r	4r	4r	.	4r	4r	4r	.
.	.	.	.	8a	8ff	.	8AJ	8fJ	.	.	.	.	.	.	.	.	.	.	.	.	.	.	.	.
!	!	!	!	!	!LO:TX:a:t=problem&colon; niejednoznaczy koniec łuku	!	!	!	!	!	!	!	!	!	!	!	!	!	!	!	!	!	!	!
.	.	.	.	8gJ	8eeJ)	.	8G	8e	.	.	.	.	.	.	.	.	8r	8r	8r	.	8r	8r	8r	.
!	!	!	!LO:LB:g=original	!	!	!	!LO:LB:g=original	!	!LO:LBLg=original	!	!	!	!	!	!	!LO:LB:g=original	!	!	!	!	!	!	!	!
=65	=65	=65	=65	=65	=65	=65	=65	=65	=65	=65	=65	=65	=65	=65	=65	=65	=65	=65	=65	=65	=65	=65	=65	=65
8GGL	.	.	8GL	4g	4ee	.	4G	(>4e	4r	4r	.	.	2.r	4r	.	4r	4r	4r	4r	.	4r	4r	4r	.
8AA	.	.	8A	.	.	.	.	.	.	.	.	.	.	.	.	.	.	.	.	.	.	.	.	.
8BBJ	.	.	8BJ	8f	8dd	.	8F	8d)	8r	8r	.	.	.	8r	.	8r	8r	8r	8r	.	8r	8r	8r	.
4C	.	.	4c/	4e	8ccL	.	8E	8c	8r	8r	.	.	.	8r	.	8r	8r	8r	8r	.	8r	8r	8r	.
.	.	.	.	.	8g	.	8C	8c	8g	8ee	Do-	.	.	8CL	.	8ccL	8ccL	8eeL	8CL	.	8gL	8eeL	8ggL 8eee	.
8BB-X	2	.	8B-X	8c 8g	8eeJ	.	8BB-X	8c	8g	8ee	-na	.	.	8BB-XJ	.	8ccJ	8ccJ	8eeJ	8BB-XJ	.	8gJ	8eeJ	8ggJ 8eee	.
!	!	!	!	!	!LO:LB:g=original	!	!	!LO:LB:g=original	!	!	!	!	!	!	!	!	!	!	!	!	!	!	!	!
=66	=66	=66	=66	=66	=66	=66	=66	=66	=66	=66	=66	=66	=66	=66	=66	=66	=66	=66	=66	=66	=66	=66	=66	=66
4AA	6	.	4A	4c 4a	4ff	.	4AA	4c	4a	4ff	no-	.	2.r	4AA	.	4cc	4cc	4cc	4AA	.	4a	4ff	4aa 4fff	.
8AA-X	6 4n 2	.	8A-X	8a-X 8b	8ff	.	8AA-X	8d	8b	8ff	-bis	.	.	8AA-X	.	8dd	8dd	8dd	8AA-X	.	8b/	8ff	8bb 8fff	.
*	*	*	*	*^	*	*	*	*	*	*	*	*	*	*	*	*	*	*	*	*	*	*	*	*
4.GG	6 4	.	4.G	4cc	4.g	4ee	.	4.GG	(>4c	4cc	4ee	pa-	.	.	4.GG	.	8r	4cc	4ee	4.GG	.	4cc/	4ee	4ccc 4eee	.
.	.	.	.	.	.	.	.	.	.	.	.	.	.	.	.	.	8ccL 8ee	.	.	.	.	.	.	.	.
.	.	.	.	8b	.	8dd	.	.	8B)	16gLL	8dd	.	.	.	.	.	8gJ 8dd	8g	8dd	.	.	8b/	8dd	8bb 8ddd	.
.	5 3	.	.	.	.	.	.	.	.	16fJJ	.	.	.	.	.	.	.	.	.	.	.	.	.	.	.
!	!	!	!	!LO:LB:g=original	!	!	!	!	!	!	!	!	!	!	!	!	!	!LO:LB:g=original	!LO:LB:g=original	!	!	!	!LO:LB:g=original	!LO:LB:g=original	!
*	*	*	*	*v	*v	*	*	*	*	*	*	*	*	*	*	*	*	*	*	*	*	*	*	*	*
=67	=67	=67	=67	=67	=67	=67	=67	=67	=67	=67	=67	=67	=67	=67	=67	=67	=67	=67	=67	=67	=67	=67	=67	=67
*	*	*	*	*	*	*	*	*	*	*	*	*	*	*	*	*	*	*	*^	*	*	*	*	*
*	*	*	*tremolo	*	*	*	*	*	*	*	*	*	*	*	*	*	*	*	*	*	*	*	*	*	*
8CL	8 3	.	8cL/	8eL	8ccL	.	4.C	(>8cL	8eL	8ccL	-cem	.	16CLL	2.C	.	8e 8cc	2.c	8eeL	8cL	8CL	.	8ccL	8ccL	8eeL 8ccc	.
.	.	.	.	.	.	.	.	.	.	.	.	.	16C	.	.	.	.	.	.	.	.	.	.	.	.
8C	9 4	.	8c	8f	8dd	.	.	8B	8f	8dd	.	.	16C	.	.	8r	.	8ff	8B	8C	.	8b	8dd	8ff 8ddd	.
.	.	.	.	.	.	.	.	.	.	.	.	.	16C	.	.	.	.	.	.	.	.	.	.	.	.
8CJ	10 5	.	8c	8gJ	8eeJ	.	.	8B-XJ)	8gJ	8eeJ	.	.	16C	.	.	8r	.	8ggJ	8B-XJ	8CJ	.	8b-XJ	8eeJ	8ggJ 8eee	.
.	.	.	.	.	.	.	.	.	.	.	.	.	16C	.	.	.	.	.	.	.	.	.	.	.	.
8CL	6 4	.	8c	4a	4ff	.	4C	4A	4a	4ff	Do-	.	16C	.	.	8c 8cc	.	4.cc	4A	8CL	.	4a	4ff	4aa 4fff	.
.	.	.	.	.	.	.	.	.	.	.	.	.	16C	.	.	.	.	.	.	.	.	.	.	.	.
8C	.	.	8c	.	.	.	.	.	.	.	.	.	16C	.	.	8r	.	.	.	8C	.	.	.	.	.
.	.	.	.	.	.	.	.	.	.	.	.	.	16C	.	.	.	.	.	.	.	.	.	.	.	.
8CJ	5 3	.	8cJ	8g	8ee	.	8C	8c	8g	8ee	-na	.	16C	.	.	8r	.	.	8c	8CJ	.	8g	8ee	8gg 8eee	.
.	.	.	.	.	.	.	.	.	.	.	.	.	16CJJ	.	.	.	.	.	.	.	.	.	.	.	.
!	!	!	!	!	!	!	!	!	!	!	!	!	!	!LO:LB:g=original	!	!	!	!	!	!	!	!	!	!	!
=68	=68	=68	=68	=68	=68	=68	=68	=68	=68	=68	=68	=68	=68	=68	=68	=68	=68	=68	=68	=68	=68	=68	=68	=68	=68
*	*	*	*	*tremolo	*	*	*	*	*	*	*	*	*	*	*	*	*	*	*	*	*	*	*	*	*
8CL	7 2	.	8cL/	16fLL	(>16eeLL	.	4C	4B	4f	4dd	no-	.	16CLL	2.C	.	2.c	2.c	2.ff	2.f	8CL	.	2.b	2.dd	2.bb 2.ddd	.
.	.	.	.	16b	16dd	.	.	.	.	.	.	.	16C	.	.	.	.	.	.	.	.	.	.	.	.
8C	.	.	8c	16f	16cc#X	.	.	.	.	.	.	.	16C	.	.	.	.	.	.	8C	.	.	.	.	.
.	.	.	.	16b	16dd	.	.	.	.	.	.	.	16C	.	.	.	.	.	.	.	.	.	.	.	.
8CJ	.	.	8c	16f	16cc#	.	8C	8B	8f	8dd	-bis	.	16C	.	.	.	.	.	.	8C	.	.	.	.	.
.	.	.	.	16b	16ddJJ	.	.	.	.	.	.	.	16C	.	.	.	.	.	.	.	.	.	.	.	.
8CL	.	.	8c	16f	16eeLL	.	4.C	(>4.B	4.f	4.dd	pa-	.	16C	.	.	.	.	.	.	8C	.	.	.	.	.
.	.	.	.	16b	16dd	.	.	.	.	.	.	.	16C	.	.	.	.	.	.	.	.	.	.	.	.
8C	.	.	8c	16f	16cc#	.	.	.	.	.	.	.	16C	.	.	.	.	.	.	8C	.	.	.	.	.
.	.	.	.	16b	16dd	.	.	.	.	.	.	.	16C	.	.	.	.	.	.	.	.	.	.	.	.
8CJ	.	.	8cJ	16f	16aa	.	.	.	.	.	.	.	16C	.	.	.	.	.	.	8CJ	.	.	.	.	.
.	.	.	.	16bJJ	16ggJJ)	.	.	.	.	.	.	.	16CJJ	.	.	.	.	.	.	.	.	.	.	.	.
=69	=69	=69	=69	=69	=69	=69	=69	=69	=69	=69	=69	=69	=69	=69	=69	=69	=69	=69	=69	=69	=69	=69	=69	=69	=69
8CL	8 3	.	8cL/	8eL	8ccL	.	4.C	8cL)	8eL	(>8ccL	-cem	.	16CLL	2.C	.	8e 8cc	2.c	8eeL	8cL	8CL	.	8ccL	8ccL	8eeL 8ccc	.
.	.	.	.	.	.	.	.	.	.	.	.	.	16C	.	.	.	.	.	.	.	.	.	.	.	.
8C	9 4	.	8c	8f	8dd	.	.	8B	8f	8dd	.	.	16C	.	.	8r	.	8ff	8B	8C	.	8b	8dd	8ff 8ddd	.
.	.	.	.	.	.	.	.	.	.	.	.	.	16C	.	.	.	.	.	.	.	.	.	.	.	.
8CJ	10 5	.	8c	8gJ	8eeJ	.	.	8B-XJ	8gJ	8eeJ)	.	.	16C	.	.	8r	.	8ggJ	8B-XJ	8CJ	.	8b-XJ	8eeJ	8ggJ 8eee	.
.	.	.	.	.	.	.	.	.	.	.	.	.	16C	.	.	.	.	.	.	.	.	.	.	.	.
8CL	6 4	.	8c	4a	4ff	.	4C	4A	4a	4ff	Do-	.	16C	.	.	8c 8cc	.	4.cc	4A	8CL	.	4a	4ff	4aa 4fff	.
.	.	.	.	.	.	.	.	.	.	.	.	.	16C	.	.	.	.	.	.	.	.	.	.	.	.
8C	.	.	8c	.	.	.	.	.	.	.	.	.	16C	.	.	8r	.	.	.	8C	.	.	.	.	.
.	.	.	.	.	.	.	.	.	.	.	.	.	16C	.	.	.	.	.	.	.	.	.	.	.	.
8CJ	5 3	.	8cJ	8g	8ee	.	8C	8c	8g	8ee	-na	.	16C	.	.	8r	.	.	8c	8CJ	.	8g	8ee	8gg 8eee	.
.	.	.	.	.	.	.	.	.	.	.	.	.	16CJJ	.	.	.	.	.	.	.	.	.	.	.	.
=70	=70	=70	=70	=70	=70	=70	=70	=70	=70	=70	=70	=70	=70	=70	=70	=70	=70	=70	=70	=70	=70	=70	=70	=70	=70
8CL	7 2	.	8cL/	16fLL	(>16eeLL	.	4C	4B	4f	4dd	no-	.	16CLL	2.C	.	2.c	2.c	2.ff	2.f	8CL	.	2.b	2.dd	2.bb 2.ddd	.
.	.	.	.	16b	16dd	.	.	.	.	.	.	.	16C	.	.	.	.	.	.	.	.	.	.	.	.
8C	.	.	8c	16f	16cc#X	.	.	.	.	.	.	.	16C	.	.	.	.	.	.	8C	.	.	.	.	.
.	.	.	.	16b	16dd	.	.	.	.	.	.	.	16C	.	.	.	.	.	.	.	.	.	.	.	.
8CJ	.	.	8c	16f	16cc#	.	8C	8B	8f	8dd	-bis	.	16C	.	.	.	.	.	.	8C	.	.	.	.	.
.	.	.	.	16b	16ddJJ	.	.	.	.	.	.	.	16C	.	.	.	.	.	.	.	.	.	.	.	.
8CL	.	.	8c	16f	16eeLL	.	4.C	(>4.B	4.f	4.dd	pa-	.	16C	.	.	.	.	.	.	8C	.	.	.	.	.
.	.	.	.	16b	16dd	.	.	.	.	.	.	.	16C	.	.	.	.	.	.	.	.	.	.	.	.
8C	.	.	8c	16f	16cc#	.	.	.	.	.	.	.	16C	.	.	.	.	.	.	8C	.	.	.	.	.
.	.	.	.	16b	16dd	.	.	.	.	.	.	.	16C	.	.	.	.	.	.	.	.	.	.	.	.
8CJ	.	.	8cJ	16f	16aa	.	.	.	.	.	.	.	16C	.	.	.	.	.	.	8CJ	.	.	.	.	.
.	.	.	.	16bJJ	16ggJJ)	.	.	.	.	.	.	.	16CJJ	.	.	.	.	.	.	.	.	.	.	.	.
!	!	!	!LO:LB:g=original	!	!LO:LB:g=original	!	!	!	!	!LO:LB:g=original	!	!	!	!	!	!	!	!	!	!	!	!LO:LB:g=original	!	!	!
*	*	*	*	*	*	*	*	*	*	*	*	*	*	*	*	*	*	*	*v	*v	*	*	*	*	*
=71	=71	=71	=71	=71	=71	=71	=71	=71	=71	=71	=71	=71	=71	=71	=71	=71	=71	=71	=71	=71	=71	=71	=71	=71
*	*	*	*	*	*	*	*	*	*	*	*	*	*	*	*	*	*	*	*	*	*	*	*^	*
8CL/	8 3	.	8cL/	8ccL	8eeL	.	8CL	4.c)	8eL	4.cc	-cem	.	16CLL	8CL	>	4c	4c	8eeL	8CL	.	4.cc	4.cc	2.ccc	8eeL	.
.	.	.	.	.	.	.	.	.	.	.	.	.	16C	.	.	.	.	.	.	.	.	.	.	.	.
8D	8 3	.	8d	8cc	8ff	.	8D	.	8f	.	.	.	16C	8D	.	.	.	8ff	8D	.	.	.	.	8ff	.
.	.	.	.	.	.	.	.	.	.	.	.	.	16C	.	.	.	.	.	.	.	.	.	.	.	.
8EJ	8 3	.	8eJ	8cc	8ggJ	.	8EJ	.	8gJ	.	.	.	16C	8EJ	.	8r	8r	8ggJ	8EJ	.	.	.	.	8ggJ	.
.	.	.	.	.	.	.	.	.	.	.	.	.	16C	.	.	.	.	.	.	.	.	.	.	.	.
*	*	*	*	*	*tremolo	*	*	*	*	*	*	*	*	*	*	*	*	*	*	*	*	*	*	*	*
8D#XL/	7 5 3	.	8d#XL	8cc	16aaLL	.	4D#X	4A	4f#X	4cc	Do-	.	16C	4.D#X	]]	4.c 4.cc	4.cc	4.cc	8D#XL	.	4.cc	4.ff#X	.	4.aa	.
.	.	.	.	.	16aa	.	.	.	.	.	.	.	16C	.	.	.	.	.	.	.	.	.	.	.	.
8D#	.	.	8d#	8cc	16aa	.	.	.	.	.	.	.	16C	.	.	.	.	.	8D#	.	.	.	.	.	.
.	.	.	.	.	16aa	.	.	.	.	.	.	.	16C	.	.	.	.	.	.	.	.	.	.	.	.
8D#J	.	.	8d#J	8ccJ	16aa	.	8D#	8c	8f#	8a	-na	.	16C	.	.	.	.	.	8D#J	.	.	.	.	.	.
.	.	.	.	.	16aaJJ	.	.	.	.	.	.	.	16CJJ	.	.	.	.	.	.	.	.	.	.	.	.
!LO:LB:g=original	!	!	!	!	!	!	!LO:LB:g=original	!LO:LB:g=original	!LO:LB:g=original	!	!	!	!LO:LB:g=original	!	!	!LO:LB:g=original	!	!LO:LB:g=original	!	!	!	!	!	!	!
=72	=72	=72	=72	=72	=72	=72	=72	=72	=72	=72	=72	=72	=72	=72	=72	=72	=72	=72	=72	=72	=72	=72	=72	=72	=72
8EL	6 4	.	8eL	16ccLL	16aaLL	.	4.E	4.c	4.a	4.ee	no-	.	4C	4.E	]	8r	2.e	2.ee	8EL	.	4cc	4.ee	4.ccc	4.aa	.
.	.	.	.	16cc	16aa	.	.	.	.	.	.	.	.	.	.	.	.	.	.	.	.	.	.	.	.
8E	.	.	8e	16cc	16aa	.	.	.	.	.	.	.	.	.	.	8eL	.	.	8E	.	.	.	.	.	.
.	.	.	.	16cc	16aa	.	.	.	.	.	.	.	.	.	.	.	.	.	.	.	.	.	.	.	.
8EJ	.	.	8eJ	16cc	16aa	.	.	.	.	.	.	.	8r	.	.	8eJ	.	.	8EJ	.	8a	.	.	.	.
.	.	.	.	16ccJJ	16aaJJ	.	.	.	.	.	.	.	.	.	.	.	.	.	.	.	.	.	.	.	.
8EL	4 #3	.	8eL	16bLL	16aaLL	.	4.E	4.B	4a	4ee	-bis	.	4r	4.E	.	8r	.	.	8EL	.	4a	4ee	4.bb	4aa	.
.	.	.	.	16b	16aa	.	.	.	.	.	.	.	.	.	.	.	.	.	.	.	.	.	.	.	.
8E	.	.	8e	16b	16aa	.	.	.	.	.	.	.	.	.	.	8eL	.	.	8E	.	.	.	.	.	.
.	.	.	.	16b	16aaJJ	.	.	.	.	.	.	.	.	.	.	.	.	.	.	.	.	.	.	.	.
*	*	*	*	*	*Xtremolo	*	*	*	*	*	*	*	*	*	*	*	*	*	*	*	*	*	*	*	*
8EJ	.	.	8eJ	16b	16gg#XLL	.	.	.	8g#X	16eeLL	pa-	.	8r	.	.	8eJ	.	.	8EJ	.	8g#X	16eeLL	.	8gg#X	.
.	.	.	.	16bJJ	16gg#JJ	.	.	.	.	16ddJJ	.	.	.	.	.	.	.	.	.	.	.	16ddJJ	.	.	.
*	*	*	*Xtremolo	*Xtremolo	*	*	*	*	*	*	*	*	*	*	*	*	*	*	*	*	*	*	*	*	*
=73	=73	=73	=73	=73	=73	=73	=73	=73	=73	=73	=73	=73	=73	=73	=73	=73	=73	=73	=73	=73	=73	=73	=73	=73	=73
8AAL	8 3	.	8AL	16ccLL	16aaLL	.	8AAL	4.e	4a	8ccL	.	.	4r	8AAL	.	4e	4e	4ee	8AAL	.	4a	8ccL	8cccL	4aa	.
.	.	.	.	16cc	16ee	.	.	.	.	.	.	.	.	.	.	.	.	.	.	.	.	.	.	.	.
8BB	8 3	.	8B	16dd	16ee	.	8BB	.	.	8dd	.	.	.	8BB	.	.	.	.	8BB	.	.	8dd	8ddd	.	.
.	.	.	.	16dd	16ee	.	.	.	.	.	.	.	.	.	.	.	.	.	.	.	.	.	.	.	.
8CJ	8 3	.	8cJ	16ee	16ee	.	8CJ	.	16aLL	8eeJ	.	.	8r	8CJ	.	4r	8r	8r	8CJ	.	8r	8eeJ	8eeeJ	8r	.
.	.	.	.	16eeJJ	16eeJJ	.	.	.	16gJJ	.	.	.	.	.	.	.	.	.	.	.	.	.	.	.	.
!	!	!	!	!LO:LB:g=original	!	!	!	!	!	!	!	!	!	!	!	!	!	!	!	!	!	!	!	!	!
*	*	*	*	*tremolo	*tremolo	*	*	*	*	*	*	*	*	*	*	*	*	*	*	*	*	*	*	*	*
8DL	98	.	8dL/	16eeLL	16ffLL	.	4D/	4.f	4f	4ee	.	.	4r	4D	.	.	4dd	4dd	8DL	.	4a	4.ff	4eee	4.ff	.
.	.	.	.	16ee	16ff	.	.	.	.	.	.	.	.	.	.	.	.	.	.	.	.	.	.	.	.
8D	.	.	8d	16ee	16ff	.	.	.	.	.	.	.	.	.	.	8r	.	.	8D	.	.	.	.	.	.
.	.	.	.	16eeJJ	16ff	.	.	.	.	.	.	.	.	.	.	.	.	.	.	.	.	.	.	.	.
*	*	*	*	*Xtremolo	*	*	*	*	*	*	*	*	*	*	*	*	*	*	*	*	*	*	*	*	*
8BBJ	6 5	.	8BJ	16ddLL	16ff	.	8BB	.	8g	8dd	.	.	8GG	8BB	.	8g 8dd	8g	8dd	8BBJ	.	8g	.	8ddd	.	.
.	.	.	.	16ddJJ	16ffJJ	.	.	.	.	.	.	.	.	.	.	.	.	.	.	.	.	.	.	.	.
=74	=74	=74	=74	=74	=74	=74	=74	=74	=74	=74	=74	=74	=74	=74	=74	=74	=74	=74	=74	=74	=74	=74	=74	=74	=74
*	*	*	*	*tremolo	*Xtremolo	*	*	*	*	*	*	*	*	*	*	*	*	*	*	*	*	*	*	*	*
8CL	8 3	.	8cL	16ccLL	16eeLL	.	8CL/	4.c	8eL	4.cc	-cem	.	8C	8CL	.	8e 8cc	4.cc	4.cc	8CL	.	4.cc	8eeL	2.ccc	8eeL	.
.	.	.	.	16cc	16ee	.	.	.	.	.	.	.	.	.	.	.	.	.	.	.	.	.	.	.	.
8D	8 3	.	8d	16cc	16ff	.	8D	.	8f	.	.	.	8r	8D	.	8r	.	.	8D	.	.	8ff	.	8ff	.
.	.	.	.	16cc	16ff	.	.	.	.	.	.	.	.	.	.	.	.	.	.	.	.	.	.	.	.
8EJ	8 3	.	8eJ	16cc	16gg	.	8EJ	.	8gJ	.	.	.	8r	8EJ	.	8r	.	.	8EJ	.	.	8ggJ	.	8ggJ	.
.	.	.	.	16ccJJ	16ggJJ	.	.	.	.	.	.	.	.	.	.	.	.	.	.	.	.	.	.	.	.
*	*	*	*	*	*tremolo	*	*	*	*	*	*	*	*	*	*	*	*	*	*	*	*	*	*	*	*
8FL	.	.	8fL	16ccLL	16aaLL	.	4F	4c	4a	4cc	pa-	.	(<16CLL	4F	.	4.c 4.cc	4cc	4cc	8FL	.	4cc	4.aa	.	4.aa	.
.	.	.	.	16cc	16aa	.	.	.	.	.	.	.	16C	.	.	.	.	.	.	.	.	.	.	.	.
8F	.	.	8f	16cc	16aa	.	.	.	.	.	.	.	16C	.	.	.	.	.	8F	.	.	.	.	.	.
.	.	.	.	16ccJJ	16aaJJ	.	.	.	.	.	.	.	16C	.	.	.	.	.	.	.	.	.	.	.	.
*	*	*	*	*Xtremolo	*Xtremolo	*	*	*	*	*	*	*	*	*	*	*	*	*	*	*	*	*	*	*	*
8F#XJ	7- 5 3	.	8f#XJ	16e-XLL 16a	16cccLL	.	8F#X	8e-X	8a	8cc	-cem	.	16C	8F#X	.	.	8cc	8cc	8F#XJ	.	8ee-X	.	.	.	.
.	.	.	.	16e-JJ 16a	16cccJJ	.	.	.	.	.	.	.	16CJJ	.	.	.	.	.	.	.	.	.	.	.	.
*	*	*	*tremolo	*tremolo	*tremolo	*	*	*	*	*	*	*	*Xtremolo	*	*	*	*	*	*	*	*	*	*	*	*
!	!	!	!	!	!	!	!	!	!	!	!	!	!	!	!	!	!	!	!LO:LB:g=original	!	!	!	!	!	!
=75	=75	=75	=75	=75	=75	=75	=75	=75	=75	=75	=75	=75	=75	=75	=75	=75	=75	=75	=75	=75	=75	=75	=75	=75	=75
8GL	6n 4	.	8gL	16enLL 16cc	16eeLL 16ccc	.	2.G	4.en	2.g	4.cc	pa-	.	8C)	4.G	.	8r	4.cc	4.ee	8GL	.	4.cc	4.ee	4.ccc	4.ee	.
.	.	.	.	16e 16cc	16ee 16ccc	.	.	.	.	.	.	.	.	.	.	.	.	.	.	.	.	.	.	.	.
8G	.	.	8g	16e 16cc	16ee 16ccc	.	.	.	.	.	.	.	8r	.	.	8ccL 8ee	.	.	8G	.	.	.	.	.	.
.	.	.	.	16e 16cc	16ee 16ccc	.	.	.	.	.	.	.	.	.	.	.	.	.	.	.	.	.	.	.	.
8GJ	.	.	8gJ	16e 16cc	16ee 16ccc	.	.	.	.	.	.	.	8r	.	.	8ccJ 8ee	.	.	8G	.	.	.	.	.	.
.	.	.	.	16eJJ 16cc	16eeJJ 16ccc	.	.	.	.	.	.	.	.	.	.	.	.	.	.	.	.	.	.	.	.
8GL	4	.	8GL	16dLL 16cc	16ddLL 16ccc	.	.	4.d	.	4cc	.	.	8GGL	4.G	.	8r	4cc	4.dd	8G	.	4cc	4.dd	4ccc	4.dd	.
.	.	.	.	16d 16cc	16dd 16ccc	.	.	.	.	.	.	.	.	.	.	.	.	.	.	.	.	.	.	.	.
8G	.	.	8G	16d 16cc	16dd 16ccc	.	.	.	.	.	.	.	8GG	.	.	8gL 8dd	.	.	8G	.	.	.	.	.	.
.	.	.	.	16dJJ 16cc	16ddJJ 16ccc	.	.	.	.	.	.	.	.	.	.	.	.	.	.	.	.	.	.	.	.
*	*	*	*	*Xtremolo	*Xtremolo	*	*	*	*	*	*	*	*	*	*	*	*	*	*	*	*	*	*	*	*
8GJ	3	.	8GJ	16dLL 16b	16ddLL 16bb	.	.	.	.	8b	.	.	8GGJ	.	.	8gJ 8dd	8g	.	8GJ	.	8b	.	8bb	.	.
.	.	.	.	16dJJ 16b	16ddJJ 16bb	.	.	.	.	.	.	.	.	.	.	.	.	.	.	.	.	.	.	.	.
!	!	!	!LO:LB:g=original	!	!	!	!	!	!	!	!	!	!	!	!	!	!	!	!	!	!	!	!	!LO:LB:g=original	!LO:LB:g=original
=76	=76	=76	=76	=76	=76	=76	=76	=76	=76	=76	=76	=76	=76	=76	=76	=76	=76	=76	=76	=76	=76	=76	=76	=76	=76
*	*	*	*Xtremolo	*tremolo	*tremolo	*	*	*	*	*	*	*	*tremolo	*	*	*	*	*	*	*	*	*	*	*	*
8cL	3	.	8cL	16ccLL 16ee	16eeLL 16ccc	.	8cL	4.e	8gL	4.cc	.	.	16CLL	8cL	.	4.cc 4.ee	4.cc	4.ee	8cL	.	4.cc	4.ee	4.eee	4.ccc	.
.	.	.	.	16cc 16ee	16ee 16ccc	.	.	.	.	.	.	.	16C	.	.	.	.	.	.	.	.	.	.	.	.
8A	.	.	8A	16cc 16ee	16ee 16ccc	.	8A	.	8a	.	.	.	16C	8A	.	.	.	.	8A	.	.	.	.	.	.
.	.	.	.	16cc 16ee	16ee 16ccc	.	.	.	.	.	.	.	16C	.	.	.	.	.	.	.	.	.	.	.	.
8F#XJ	.	.	8F#XJ	16cc 16ee	16ee 16ccc	.	8F#XJ	.	8ccJ	.	.	.	16C	8F#XJ	.	.	.	.	8F#XJ	.	.	.	.	.	.
.	.	.	.	16ccJJ 16ee	16eeJJ 16ccc	.	.	.	.	.	.	.	16CJJ	.	.	.	.	.	.	.	.	.	.	.	.
*	*	*	*tremolo	*	*	*	*	*	*	*	*	*	*Xtremolo	*	*	*	*	*	*	*	*	*	*	*	*
8GL	43	.	8GL	16ccLL 16dd	16ddLL 16ccc	.	4.G	(>4.d	4.g	4cc	.	.	8CL	4G	.	8r	4cc	4.dd	8GL	.	4cc	4.dd	4.ddd	4ccc	.
.	.	.	.	16cc 16dd	16dd 16ccc	.	.	.	.	.	.	.	.	.	.	.	.	.	.	.	.	.	.	.	.
8G	.	.	8G	16cc 16dd	16dd 16ccc	.	.	.	.	.	.	.	8GG	.	.	8gL 8dd	.	.	8G	.	.	.	.	.	.
.	.	.	.	16ccJJ 16dd	16ddJJ 16ccc	.	.	.	.	.	.	.	.	.	.	.	.	.	.	.	.	.	.	.	.
*	*	*	*	*Xtremolo	*Xtremolo	*	*	*	*	*	*	*	*	*	*	*	*	*	*	*	*	*	*	*	*
8GJ	.	.	8GJ	16bLL 16dd	16ddLL 16bb	.	.	.	.	8b	.	.	8GGJ	8G	.	8gJ 8dd	8g	.	8GJ	.	8b	.	.	8bb	.
.	.	.	.	16bJJ 16dd	16ddJJ 16bb	.	.	.	.	.	.	.	.	.	.	.	.	.	.	.	.	.	.	.	.
!LO:LB:g=original	!	!	!	!	!	!	!	!	!	!	!	!	!LO:LB:g=original	!LO:LB:g=original	!	!	!LO:LB:g=original	!	!	!	!	!	!	!	!
=77	=77	=77	=77	=77	=77	=77	=77	=77	=77	=77	=77	=77	=77	=77	=77	=77	=77	=77	=77	=77	=77	=77	=77	=77	=77
*	*	*	*	*tremolo	*tremolo	*	*	*	*	*	*	*	*tremolo	*	*	*	*	*	*	*	*	*	*	*	*
8cL	3	.	8cL	16eeLL 16ccc	(>16eeeLL	.	8cL	4c)	8gL	4.ee	.	.	16CLL	8cL	.	4.cc 4.ee	4.cc	4.ee	8cL	.	4cc	4ee	4.eee	4.ccc	.
.	.	.	.	16ee 16ccc	16eee	.	.	.	.	.	.	.	16C	.	.	.	.	.	.	.	.	.	.	.	.
8A	.	.	8A	16ee 16ccc	16eee	.	8A	.	8a	.	.	.	16C	8A	.	.	.	.	8A	.	.	.	.	.	.
.	.	.	.	16ee 16ccc	16eee	.	.	.	.	.	.	.	16C	.	.	.	.	.	.	.	.	.	.	.	.
8F#XJ	.	.	8F#XJ	16ee 16ccc	16eee	.	8F#XJ	8r	8ccJ	.	.	.	16C	8F#XJ	.	.	.	.	8F#XJ	.	8ee	8ccc	.	.	.
.	.	.	.	16eeJJ 16ccc	16eeeJJ	.	.	.	.	.	.	.	16CJJ	.	.	.	.	.	.	.	.	.	.	.	.
*	*	*	*	*	*	*	*	*	*	*	*	*	*Xtremolo	*	*	*	*	*	*	*	*	*	*	*	*
8GL	43	.	8GL	16ddLL 16ccc	16dddLL	.	4.G	(>4c	4.g	4.dd	.	.	8CL	4G	.	8r	4cc	4.dd	8GL	.	4.dd	4ccc	4.ddd	4ccc	.
.	.	.	.	16dd 16ccc	16ddd	.	.	.	.	.	.	.	.	.	.	.	.	.	.	.	.	.	.	.	.
8G	.	.	8G	16dd 16ccc	16ddd	.	.	.	.	.	.	.	8GG	.	.	8gL 8dd	.	.	8G	.	.	.	.	.	.
.	.	.	.	16ddJJ 16ccc	16ddd	.	.	.	.	.	.	.	.	.	.	.	.	.	.	.	.	.	.	.	.
*	*	*	*	*Xtremolo	*	*	*	*	*	*	*	*	*	*	*	*	*	*	*	*	*	*	*	*	*
8GJ	.	.	8GJ	16ddLL 16bb	16ddd	.	.	8B	.	.	.	.	8GGJ	8G	.	8gJ 8dd	8g	.	8GJ	.	.	8bb	.	8bb	.
.	.	.	.	16ddJJ 16bb	16dddJJ	.	.	.	.	.	.	.	.	.	.	.	.	.	.	.	.	.	.	.	.
*	*	*	*Xtremolo	*	*Xtremolo	*	*	*	*	*	*	*	*	*	*	*	*	*	*	*	*	*	*	*	*
!	!	!	!	!LO:LB:g=original	!LO:LB:g=original	!	!	!	!	!	!	!	!	!	!	!LO:LB:g=original	!	!	!	!	!	!LO:LB:g=original	!	!	!
*	*	*	*	*	*	*	*	*	*	*	*	*	*	*	*	*	*	*	*	*	*	*	*v	*v	*
=78	=78	=78	=78	=78	=78	=78	=78	=78	=78	=78	=78	=78	=78	=78	=78	=78	=78	=78	=78	=78	=78	=78	=78	=78
*	*	*	*	*	*	*	*	*	*	*	*	*	*tremolo	*	*	*	*	*	*	*	*	*	*	*
8CL/	.	.	8cL\	4.ee 4.ccc	4.ccc)	fp	4C	4c)	4g	4ee	-cem	.	16CLL	[4.C	.	4.e 4.cc	4.cc	4.ee	8CL	.	4.ee	4.ccc	4.ccc	.
.	.	.	.	.	.	.	.	.	.	.	.	.	16C	.	.	.	.	.	.	.	.	.	.	.
8c\	.	.	8C/	.	.	.	.	.	.	.	.	.	16C	.	.	.	.	.	8c	.	.	.	.	.
.	.	.	.	.	.	.	.	.	.	.	.	.	16C	.	.	.	.	.	.	.	.	.	.	.
8cJ	.	.	8CJ	.	.	.	8r	8r	8r	8r	.	.	16C	.	.	.	.	.	8cJ	.	.	.	.	.
.	.	.	.	.	.	.	.	.	.	.	.	.	16CJJ	.	.	.	.	.	.	.	.	.	.	.
*	*	*	*	*	*	*	*	*	*	*	*	*	*Xtremolo	*	*	*	*	*	*	*	*	*	*	*
4c	.	.	4C	8eeL 8ccc	8cccL	.	4r	4r	4r	4r	.	.	4C	4C]	.	4e 4cc	4cc	4ee	4c	.	4ee	4ccc	4ccc	.
.	.	.	.	(<8e	(>8ee	.	.	.	.	.	.	.	.	.	.	.	.	.	.	.	.	.	.	.
8r	.	.	8r	8fJ	8ffJ	.	8r	8r	8r	8r	.	.	8r	8r	.	8r	8r	8r	8r	.	8r	8r	8r	.
!	!	!	!	!	!	!	!LO:LB:g=original	!	!	!LO:LB:g=original	!	!	!	!	!	!	!	!	!	!	!	!	!	!
=79	=79	=79	=79	=79	=79	=79	=79	=79	=79	=79	=79	=79	=79	=79	=79	=79	=79	=79	=79	=79	=79	=79	=79	=79
8r	.	.	8r	8gL)	8ggL)	.	2.r	2.r	2.r	2.r	.	.	2.r	2.r	.	2.r	2.r	2.r	2.r	.	2.r	2.r	2.r	.
(>8AL	.	.	8AL	8A	(>8a	.	.	.	.	.	.	.	.	.	.	.	.	.	.	.	.	.	.	.
8BJ)	.	.	8BJ	8BJ	8bJ	.	.	.	.	.	.	.	.	.	.	.	.	.	.	.	.	.	.	.
8c`L	.	.	8cL	8cL	8ccL)	.	.	.	.	.	.	.	.	.	.	.	.	.	.	.	.	.	.	.
(>8C	.	.	8C	8c	(<8c	.	.	.	.	.	.	.	.	.	.	.	.	.	.	.	.	.	.	.
8DJ	.	.	8DJ	8dJ	8dJ	.	.	.	.	.	.	.	.	.	.	.	.	.	.	.	.	.	.	.
=80	=80	=80	=80	=80	=80	=80	=80	=80	=80	=80	=80	=80	=80	=80	=80	=80	=80	=80	=80	=80	=80	=80	=80	=80
4.E)	.	.	[4.E	[4.e	4.e)	.	4r	4r	4r	4r	.	.	2.r	2.r	.	2.r	2.r	2.r	2.r	.	2.r	2.r	2.r	.
.	.	.	.	.	.	.	8r	8r	8r	8r	.	.	.	.	.	.	.	.	.	.	.	.	.	.
4E	.	.	4E]	4e]	4e	.	8r	8r	8r	8r	.	p	.	.	.	.	.	.	.	.	.	.	.	.
.	.	.	.	.	.	.	8E	8e	8g#X	8b	Do-	.	.	.	.	.	.	.	.	.	.	.	.	.
8r	.	.	8r	8r	8r	.	8E	8e	8g#	8b	-na	.	.	.	.	.	.	.	.	.	.	.	.	.
!	!	!	!	!	!	!	!LO:LB:g=original	!	!	!	!	!	!	!	!	!	!	!	!	!	!	!	!	!
=81	=81	=81	=81	=81	=81	=81	=81	=81	=81	=81	=81	=81	=81	=81	=81	=81	=81	=81	=81	=81	=81	=81	=81	=81
2.r	.	.	2.r	2.r	2.r	.	4.E	4.e	4.a	4.cc	no-	.	2.r	2.r	.	2.r	2.r	2.r	2.r	.	2.r	2.r	2.r	.
.	.	.	.	.	.	.	4.E	4e	4.g#X	4.b	-bis	.	.	.	.	.	.	.	.	.	.	.	.	.
.	.	.	.	.	.	.	.	16eLL	.	.	.	.	.	.	.	.	.	.	.	.	.	.	.	.
.	.	.	.	.	.	.	.	16dJJ	.	.	.	.	.	.	.	.	.	.	.	.	.	.	.	.
=82	=82	=82	=82	=82	=82	=82	=82	=82	=82	=82	=82	=82	=82	=82	=82	=82	=82	=82	=82	=82	=82	=82	=82	=82
2.r	.	.	2.r	2.r	2.r	.	4.F	4.c	4.a	4.a	pa-	.	2.r	2.r	.	2.r	2.r	2.r	2.r	.	2.r	2.r	2.r	.
.	.	.	.	.	.	.	4.F	4.d	4.f	8aL	.	.	.	.	.	.	.	.	.	.	.	.	.	.
.	.	.	.	.	.	.	.	.	.	8ff	.	.	.	.	.	.	.	.	.	.	.	.	.	.
.	.	.	.	.	.	.	.	.	.	8ddJ	.	.	.	.	.	.	.	.	.	.	.	.	.	.
!	!	!	!	!	!	!	!	!	!LO:LB:g=original	!	!	!	!	!	!	!	!	!	!	!	!	!	!	!
=83	=83	=83	=83	=83	=83	=83	=83	=83	=83	=83	=83	=83	=83	=83	=83	=83	=83	=83	=83	=83	=83	=83	=83	=83
2.r	.	.	2.r	4r	4r	.	4.G	4e	4e	4cc	.	.	2.r	2.r	.	2.r	2.r	2.r	2.r	.	2.r	2.r	2.r	.
.	.	.	.	8r	8r	.	.	8d	8f	8b	.	.	.	.	.	.	.	.	.	.	.	.	.	.
.	.	.	.	8r	8r	.	4C	4c	4e	4cc	-cem	.	.	.	.	.	.	.	.	.	.	.	.	.
.	.	.	.	8eL	(>8eeL	.	.	.	.	.	.	.	.	.	.	.	.	.	.	.	.	.	.	.
.	.	.	.	8fJ	8ffJ	.	8r	8r	8r	8r	.	.	.	.	.	.	.	.	.	.	.	.	.	.
!LO:LB:g=original	!	!	!LO:LB:g=original	!LO:LB:g=original	!	!	!	!	!	!	!	!	!	!	!	!	!	!	!	!	!	!	!	!
=84	=84	=84	=84	=84	=84	=84	=84	=84	=84	=84	=84	=84	=84	=84	=84	=84	=84	=84	=84	=84	=84	=84	=84	=84
8r	.	.	8r	8gL	8ggL)	.	2.r	2.r	2.r	2.r	.	.	2.r	2.r	.	2.r	2.r	2.r	2.r	.	2.r	2.r	2.r	.
(>8AL	.	.	8AL	8A	(>8a	.	.	.	.	.	.	.	.	.	.	.	.	.	.	.	.	.	.	.
8BJ)	.	.	8BJ	8BJ	8bJ	.	.	.	.	.	.	.	.	.	.	.	.	.	.	.	.	.	.	.
8c`L	.	.	8cL	8cL	8ccL)	.	.	.	.	.	.	.	.	.	.	.	.	.	.	.	.	.	.	.
(>8C	.	.	8C	8c	(<8c	.	.	.	.	.	.	.	.	.	.	.	.	.	.	.	.	.	.	.
8DJ	.	.	8DJ	8dJ	8dJ	.	.	.	.	.	.	.	.	.	.	.	.	.	.	.	.	.	.	.
=85	=85	=85	=85	=85	=85	=85	=85	=85	=85	=85	=85	=85	=85	=85	=85	=85	=85	=85	=85	=85	=85	=85	=85	=85
4.E)	.	.	4.E	4.e	4.e)	.	4r	4r	4r	4r	.	.	2.r	2.r	.	2.r	2.r	2.r	2.r	.	2.r	2.r	2.r	.
.	.	.	.	.	.	.	8r	8r	8r	8r	.	.	.	.	.	.	.	.	.	.	.	.	.	.
4E	.	.	4E	4e	4e	.	8r	8r	8r	8r	.	.	.	.	.	.	.	.	.	.	.	.	.	.
.	.	.	.	.	.	.	8E	8e	8g#X	8b	Do-	.	.	.	.	.	.	.	.	.	.	.	.	.
8r	.	.	8r	8r	8r	.	8E	8e	8g#	8b	-na	.	.	.	.	.	.	.	.	.	.	.	.	.
!	!	!	!	!	!LO:LB:g=original	!	!LO:LB:g=original	!	!	!LO:LB:g=original	!	!	!	!	!	!	!	!	!	!	!	!	!	!
=86	=86	=86	=86	=86	=86	=86	=86	=86	=86	=86	=86	=86	=86	=86	=86	=86	=86	=86	=86	=86	=86	=86	=86	=86
2.r	.	.	2.r	2.r	2.r	.	4.E	4.e	4.a	4.cc	no-	.	2.r	2.r	.	2.r	2.r	2.r	2.r	.	2.r	2.r	2.r	.
.	.	.	.	.	.	.	4.E	4e	4.g#X	4.b	-bis	.	.	.	.	.	.	.	.	.	.	.	.	.
.	.	.	.	.	.	.	.	16eLL	.	.	.	.	.	.	.	.	.	.	.	.	.	.	.	.
.	.	.	.	.	.	.	.	16dJJ	.	.	.	.	.	.	.	.	.	.	.	.	.	.	.	.
!	!	!	!	!	!	!	!	!LO:LB:g=original	!	!	!	!	!	!	!	!	!	!	!	!	!	!	!	!
=87	=87	=87	=87	=87	=87	=87	=87	=87	=87	=87	=87	=87	=87	=87	=87	=87	=87	=87	=87	=87	=87	=87	=87	=87
2.r	.	.	2.r	2.r	2.r	.	4.F	4.c	4.a	4.a	pa-	.	2.r	2.r	.	2.r	2.r	2.r	2.r	.	2.r	2.r	2.r	.
.	.	.	.	.	.	.	4.F	4.d	4.f	8aL	.	.	.	.	.	.	.	.	.	.	.	.	.	.
.	.	.	.	.	.	.	.	.	.	8ff	.	.	.	.	.	.	.	.	.	.	.	.	.	.
.	.	.	.	.	.	.	.	.	.	8ddJ	.	.	.	.	.	.	.	.	.	.	.	.	.	.
!	!	!	!	!	!	!	!	!	!LO:LB:g=original	!	!	!	!	!	!	!	!	!	!	!	!	!	!	!
=88	=88	=88	=88	=88	=88	=88	=88	=88	=88	=88	=88	=88	=88	=88	=88	=88	=88	=88	=88	=88	=88	=88	=88	=88
4r	.	.	4r	4r	4r	.	4.G	4e	4e	4cc	.	.	2.r	2.r	.	2.r	2.r	2.r	2.r	.	2.r	2.r	2.r	.
8r	.	.	8r	8r	8r	.	.	8d	8f	8b	.	.	.	.	.	.	.	.	.	.	.	.	.	.
8r	.	.	8r	8r	8r	.	4C	4c	4e	4cc	-cem	.	.	.	.	.	.	.	.	.	.	.	.	.
(>8cL	.	.	(>8cL	(>8ccL	(>8ccL	.	.	.	.	.	.	.	.	.	.	.	.	.	.	.	.	.	.	.
8dJ	.	.	8dJ	8ddJ	8ddJ	.	8r	8r	8r	8r	.	.	.	.	.	.	.	.	.	.	.	.	.	.
=89	=89	=89	=89	=89	=89	=89	=89	=89	=89	=89	=89	=89	=89	=89	=89	=89	=89	=89	=89	=89	=89	=89	=89	=89
8eL)	.	.	8eL)	8eeL)	8eeL)	.	2.r	2.r	2.r	2.r	.	.	2.r	2.r	.	2.r	2.r	2.r	2.r	.	2.r	2.r	2.r	.
(>8E	.	.	8E	8e	(<8e	.	.	.	.	.	.	.	.	.	.	.	.	.	.	.	.	.	.	.
8FJ	.	.	8FJ	8fJ	8fJ	.	.	.	.	.	.	.	.	.	.	.	.	.	.	.	.	.	.	.
8G`L)	.	.	8GL	8gL	8gL)	.	.	.	.	.	.	.	.	.	.	.	.	.	.	.	.	.	.	.
(>8C	.	.	8c	8c	(<8c	.	.	.	.	.	.	.	.	.	.	.	.	.	.	.	.	.	.	.
!LO:TX:a:t=problem&colon; nieprecyzyjne zakończenie łuku	!	!	!	!	!	!	!	!	!	!	!	!	!	!	!	!	!	!	!	!	!	!	!	!
8DJ)	.	.	8dJ	8dJ	8dJ	.	.	.	.	.	.	.	.	.	.	.	.	.	.	.	.	.	.	.
!LO:LB:g=original	!	!	!LO:LB:g=original	!LO:LB:g=original	!	!	!	!	!	!	!	!	!	!	!	!	!	!	!	!	!	!	!	!
=90	=90	=90	=90	=90	=90	=90	=90	=90	=90	=90	=90	=90	=90	=90	=90	=90	=90	=90	=90	=90	=90	=90	=90	=90
(>8E`L\	.	.	8eL	8eL	8eL)	.	4r	4r	4r	4r	.	.	2.r	2.r	.	2.r	2.r	2.r	2.r	.	2.r	2.r	2.r	.
8BB	.	.	8B	8B	(<8B	.	.	.	.	.	.	.	.	.	.	.	.	.	.	.	.	.	.	.
8CJ)	.	.	8cJ	8cJ	8cJ	.	8r	8r	8r	8r	.	.	.	.	.	.	.	.	.	.	.	.	.	.
4GG	.	.	4G	4G	4G)	.	4r	4r	4r	4r	.	.	.	.	.	.	.	.	.	.	.	.	.	.
!	!	!	!	!	!	!	!	!LO:N:vis=4	!	!	!	!	!	!	!	!	!	!	!	!	!	!	!	!
8r	.	.	8r	8r	8r	.	8G	8d	8f	8b	pa-	<	.	.	.	.	.	.	.	.	.	.	.	.
!	!	!	!	!	!	!	!LO:LB:g=original	!	!	!	!	!	!	!	!	!	!	!	!	!	!	!	!	!
=91	=91	=91	=91	=91	=91	=91	=91	=91	=91	=91	=91	=91	=91	=91	=91	=91	=91	=91	=91	=91	=91	=91	=91	=91
4GG	.	.	4G	4r	4r	.	2.G	2.d	2.f	2.b	.	[	4r	4r	.	4r	4r	4r	4r	.	4r	4r	4r	.
8r	.	.	8r	8r	8r	.	.	.	.	.	.	>	8r	8r	.	8r	8r	8r	8r	.	8r	8r	8r	.
4G	7 5 3	.	4G	4G 4f	4d 4b	.	.	.	.	.	.	]	4GG	4.G	.	4.g 4.dd	8r	8r	(>4.G	.	8r	8r	4.dd 4.bb	.
.	.	.	.	.	.	.	.	.	.	.	.	.	.	.	.	.	8gL	8ddL	.	.	8bL	8ddL	.	.
8r	.	.	8r	8r	8r	.	.	.	.	.	.	.	8r	.	.	.	8gJ	8ddJ	.	.	8bJ	8ddJ	.	.
!	!	!	!	!	!LO:LB:g=original	!	!	!	!	!	!	!	!	!	!	!	!	!	!	!	!LO:LB:g=original	!	!	!
=92	=92	=92	=92	=92	=92	=92	=92	=92	=92	=92	=92	=92	=92	=92	=92	=92	=92	=92	=92	=92	=92	=92	=92	=92
4C	.	.	4c	4G 4e	4e 4cc	.	4.C	4.c	4.e	[4.cc	-cem	[	4C	4C	.	4cc 4ee	8r	8r	4C)	.	8r	8r	4ee 4ccc	.
.	.	.	.	.	.	.	.	.	.	.	.	.	.	.	.	.	8eL	8ccL	.	.	8ccL	8eeL	.	.
8r	.	.	8r	8r	8r	.	.	.	.	.	.	.	8r	8r	.	8r	8eJ	8ccJ	8r	.	8ccJ	8eeJ	8r	.
4C	.	.	4c	4G 4e	4e 4cc	.	4C	4c	4e	4cc]	.	.	4r	4r	.	4r	8r	8r	4r	.	8r	8r	4r	.
.	.	.	.	.	.	.	.	.	.	.	.	.	.	.	.	.	8eL	8ccL	.	.	8ccL	8eeL	.	.
8r	.	.	8r	8r	8r	.	8r	8r	8r	8r	.	.	8r	8r	.	8r	8eJ	8ccJ	8r	.	8ccJ	8eeJ	8r	.
!	!	!	!	!	!	!	!	!	!	!	!	!	!	!	!	!	!	!LO:LB:g=original	!	!	!	!	!	!
=93	=93	=93	=93	=93	=93	=93	=93	=93	=93	=93	=93	=93	=93	=93	=93	=93	=93	=93	=93	=93	=93	=93	=93	=93
4.C	.	.	4.C/	4.G 4.e	4.e 4.cc	.	2.r	2.r	2.r	2.r	.	.	2.r	2.r	.	2.r	4.e	4.cc	2.r	.	4.cc	4.ee	2.r	.
4C	.	.	4C	4G 4e	4e 4cc	.	.	.	.	.	.	.	.	.	.	.	4e	4cc	.	.	4cc	4ee	.	.
8r	.	.	8r	8r	8r	.	.	.	.	.	.	.	.	.	.	.	8r	8r	.	.	8r	8r	.	.
==	==	==	==	==	==	==	==	==	==	==	==	==	==	==	==	==	==	==	==	==	==	==	==	==
*-	*-	*-	*-	*-	*-	*-	*-	*-	*-	*-	*-	*-	*-	*-	*-	*-	*-	*-	*-	*-	*-	*-	*-	*-
!!!system-decoration: s1,s2,s3,s4[(s5,s6,s7,s8)][(s9)][(s10,s11,s12,s13)][(s14,s15,s16)][(s17)]
!!!RDF**kern: > = above
!!!RDF**kern: < = below
!!!ENC: Andrzej Borzym
!!!END: 2020-01-28
!!!ENC: Anna Matuszewska
!!!END: 2020-03-01
!!!YEC: Copyright 2022 Narodowy Instytut Fryderyka Chopina (https://polishscores.org)
!!!YEM: Licence CC BY 4.0 (https://creativecommons.org/licenses/by/4.0)
